!!!!SEGMENT: s-uu--instr-mus-i-hs-3-7_forster-kaspar--sonata-ex-g.krn
!!!cenid: 16xx:1681
!!!COM: Förster, Kaspar
!!!COM-rismID: pe30006147
!!!CDT: ~1616-1673/02/02
!!!CNT: German
!!!OTL: Sonata ex G
!!!PDT:
!!!AGN:
!!!SMS-siglum: S-Uu
!!!SMS-shelfmark: Instr. mus. i hs. 3:7
!!!SMS-shelfwork: W
!!!SMS-variant:
!!!SMS-altvar:
!!!NIFC-rismSourceID: 190008750
!!!NIFC-rismChildID: 190008750
!!!NIFC-islandoraID: none
!!!URL-pdf-islandora:
!!!URL-scan: https://www2.musik.uu.se/duben/presentationSource1.php?Select_Dnr=2113 @EN{Scan on Academica} @PL{Skany w zewnętrznej bibliotece cyfrowej}
!!!ONB-nifc: UWAGA: poszczególne partie dostępne po kliknięciu w „browse part”. Informacje nt stron tytułowych w opisie na stronie lub na RISM.
!!!AIN: 4 empty
!!!key:
**kern	**fba	**dynam	**kern	**fba	**dynam	**kern	**dynam	**kern	**dynam	**kern	**dynam
*part4	*part4	*part4	*part4	*part4	*part4	*part3	*part3	*part2	*part2	*part1	*part1
*staff4	*	*	*staff4	*	*	*staff3	*	*staff2	*	*staff1	*
*Iempty	*	*	*Iempty	*	*	*Iempty	*	*Iempty	*	*Iempty	*
*I"[Continuo]	*	*	*I"[Continuo]	*	*	*I"Viola da Gamba	*	*I"Violino. 2 do	*	*I"Violino. 1	*
*I'bc	*	*	*I'bc	*	*	*I'vla da gamba	*	*I'vl 2	*	*I'vl 1	*
*ICstr	*	*	*ICstr	*	*	*ICstr	*	*ICstr	*	*ICstr	*
*IGcont	*	*	*IGcont	*	*	*	*	*	*	*	*
*clefF4	*	*	*clefF4	*	*	*clefF4	*	*clefG2	*	*clefG2	*
*k[f#c#]	*	*	*k[f#c#]	*	*	*k[f#c#]	*	*k[f#c#]	*	*k[f#c#]	*
*G:	*	*	*G:	*	*	*G:	*	*G:	*	*G:	*
*M2/2	*	*	*M2/2	*	*	*M2/2	*	*M2/2	*	*M2/2	*
*met(c|)	*	*	*met(c|)	*	*	*met(c|)	*	*met(c|)	*	*met(c|)	*
=1	=1	=1	=1	=1	=1	=1	=1	=1	=1	=1	=1
!LO:TX:t=P:problem:znaki [FF# C# F#]	!	!	!LO:TX:t=P:problem:znaki [FF# C# F#]	!	!	!	!	!	!	!	!
*2\right	*	*	*2\right	*	*	*	*	*	*	*	*
!	!	!	!	!	!	!	!	!	!	!LO:TX:t=P:problem:p = piano:global	!
!	!	!	!	!	!	!LO:TX:t=P:problem:znaki [FF# C# F#]	!	!LO:TX:t=P:problem:znaki [f# cc# ff#]]	!	!LO:TX:rj:b:t=Sonata	!
!	!	!	!	!	!	!LO:TX:rj:b:t=Sonata.	!	!LO:TX:rj:b:t=Sonata.	!	!LO:TX:rj:a:t=adagio	!
!LO:TX:a:i:t=Sonata a 3.	!	!	!LO:TX:a:i:t=Sonata a 3.	!	!	!LO:TX:rj:a:t=adagio	!	!LO:TX:rj:a:t=adagio	!	!LO:TX:a:t=á 3.	!
!	!	!	!LO:TX:b:t=Adagio	!	!	!LO:TX:a:t=à. 3.	!	!LO:TX:a:t=à. 3.	!	!LO:TX:t=P:problem:znaki [f# cc# ff#]]	!
2.G\	.	.	2.G\	.	.	2r	.	4r	.	4r	.
.	.	.	.	.	.	.	.	8.g/L	.	8.b\L	.
!	!	!	!	!	!	!	!	!	!	!LO:TX:t=P:problem:♭above	!
!	!	!	!	!	!	!	!	!	!	!LO:N:acc=-	!
.	.	.	.	.	.	.	.	16a/Jk	.	16ccn\Jk	.
!	!	!	!	!	!	!	!	!LO:TX:t=P:problem:kreska pseudotaktowa	!	!	!
*	*	*	*	*	*	*	*	*	*	*2\right	*
.	.	.	.	.	.	4r	.	2b/	.	[2dd\	.
!LO:TX:rj:b:t=adagio	!	!	!	!	!	!	!	!	!	!	!
8.GG/L	.	.	8.GG/L	.	.	8.GG/L	.	.	.	.	.
!LO:TX:t=P:problem:kreska pseudotaktowa	!	!	!LO:TX:t=P:problem:kreska pseudotaktowa	!	!	!	!	!	!	!	!
16AA/Jk	.	.	16AA/Jk	.	.	16AA/Jk	.	.	.	.	.
=2	=2	=2	=2	=2	=2	=2	=2	=2	=2	=2-	=2
4BB/	.	.	4BB/	.	.	4BB/	.	8b/L	.	8dd\L]	.
.	.	.	.	.	.	.	.	8b/	.	8dd\	.
!	!	!	!	!	!	!	!	!	!	!LO:TX:t=P:problem:♭above	!
!	!	!	!	!	!	!	!	!	!	!LO:N:acc=-	!
!LO:N:acc=-	!	!	!LO:N:acc=-	!	!	!LO:N:acc=-	!	!	!	!LO:TX:a:t=t.	!
4Cn/	6	.	4Cn/	6	.	4Cn/	.	8.a/	.	8.ccn\	.
!	!	!	!	!	!	!	!	!	!	!LO:N:vis=8	!
.	5	.	.	5	.	.	.	16g/Jk	.	16b\Jk	.
!LO:TX:t=P:problem:kreska pseudotaktowa	!	!	!LO:TX:t=P:problem:kreska pseudotaktowa	!	!	!LO:TX:t=P:problem:kreska pseudotaktowa	!	!	!	!	!
[2D/	.	.	[2D/	.	.	2D/	.	4f#/	.	4a/	.
.	.	.	.	.	.	.	.	8.dd\L	.	8.ff#\L	.
!	!	!	!	!	!	!	!	!LO:TX:t=P:problem:kreska pseudotaktowa	!	!LO:TX:t=P:problem:kreska pseudotaktowa	!
.	.	.	.	.	.	.	.	16ee\Jk	.	16gg\Jk	.
=3	=3	=3	=3	=3	=3	=3	=3	=3	=3	=3	=3
*	*	*	*	*	*	*	*	*2\right	*	*	*
4D/]	.	.	4D/]	.	.	4r	.	[2ff#\	.	[2aa\	.
8.D/L	.	.	8.D/L	.	.	8.D\L	.	.	.	.	.
16E/Jk	.	.	16E/Jk	.	.	16E\Jk	.	.	.	.	.
4F#\	6	.	4F#\	6	.	4F#\	.	8ff#\L]	.	8aa\L]	.
.	.	.	.	.	.	.	.	8ff#\	.	8aa\	.
!LO:TX:t=P:problem:kreska pseudotaktowa	!	!	!LO:TX:t=P:problem:kreska pseudotaktowa	!	!	!LO:TX:t=P:problem:kreska pseudotaktowa	!	!	!	!LO:TX:a:t=t.	!
4G\	6	.	4G\	6	.	4G\	.	8.ee\	.	8.gg\	.
!	!	!	!	!	!	!	!	!	!	!LO:TX:t=P:problem:kreska pseudotaktowa	!
.	.	.	.	5	.	.	.	16dd\Jk	.	16ff#\Jk	.
=4	=4	=4	=4	=4	=4	=4	=4	=4-	=4	=4	=4
8.A\L	.	.	8.A\L	.	.	8.A\L	.	4.cc#\	.	4.ee\	.
16G\Jk	.	.	16G\Jk	.	.	16G\Jk	.	.	.	.	.
8.F#\L	.	.	8.F#\L	.	.	8.F#\L	.	.	.	.	.
.	.	.	.	.	.	.	.	8cc#\	.	8ee\	.
16E\Jk	6\	.	16E\Jk	6\	.	16E\Jk	.	.	.	.	.
8.D/L	.	.	8.D/L	.	.	8.D/L	.	4.dd\	.	4.ff#\	.
16C#/Jk	.	.	16C#/Jk	.	.	16C#/Jk	.	.	.	.	.
8.BB/L	.	.	8.BB/L	.	.	8.BB/L	.	.	.	.	.
!	!	!	!	!	!	!	!	!LO:TX:t=P:problem:kreska pseudotaktowa	!	!	!
.	.	.	.	.	.	.	.	8dd\	.	8ff#\	.
!LO:TX:t=P:problem:kreska pseudotaktowa	!	!	!LO:TX:t=P:problem:kreska pseudotaktowa	!	!	!LO:TX:t=P:problem:kreska pseudotaktowa	!	!	!	!	!
16AA/Jk	6\	.	16AA/Jk	6\	.	16AA/Jk	.	.	.	.	.
=5	=5	=5	=5	=5	=5	=5	=5	=5	=5	=5-	=5
4GG/	6 5	.	4GG/	6 5	.	4GG/	.	4.dd\	.	4.ee\	.
4AA/	4	.	4AA/	4	.	4AA/	.	.	.	.	.
.	#	.	.	#	.	.	.	8cc#\	.	8ee\	.
!LO:TX:t=P:problem:kreska pseudotaktowa	!	!	!LO:TX:t=P:problem:kreska pseudotaktowa	!	!	!	!	!	!	!	!
[2D/	.	.	[2D/	.	.	1DD/	.	4dd\	.	4ff#\	.
.	.	.	.	.	.	.	.	8.d/L	.	8.f#/L	.
!	!	!	!	!	!	!	!	!LO:TX:t=P:problem:kreska pseudotaktowa	!	!LO:TX:t=P:problem:kreska pseudotaktowa	!
.	.	.	.	.	.	.	.	16e/Jk	.	16g/Jk	.
=6	=6	=6	=6	=6	=6	=6-	=6	=6	=6	=6	=6
4D/]	.	.	4D/]	.	.	.	.	8.f#/L	.	8.a/L	.
.	.	.	.	.	.	.	.	16g/K	.	16b/Jk	.
!	!	!	!	!	!	!	!	!	!	!LO:N:acc=-	!
4DD/	-7 #	.	4DD/	- 7 #	.	.	.	8a/	.	8.ccn\L	.
.	.	.	.	.	.	.	.	8f#/J	.	.	.
.	.	.	.	.	.	.	.	.	.	16b\Jk	.
2GG/	.	.	2GG/	.	.	[2GG/	.	4g/	.	4b\	.
.	.	.	.	.	.	.	.	8.g/L	.	8.b\L	.
!	!	!	!	!	!	!	!	!	!	!LO:TX:t=P:problem:kreska pseudotaktowa	!
!	!	!	!	!	!	!	!	!LO:TX:t=P:problem:kreska pseudotaktowa	!	!LO:N:acc=-	!
.	.	.	.	.	.	.	.	16a/Jk	.	16ccn\Jk	.
=7	=7	=7	=7	=7	=7	=7-	=7	=7	=7	=7	=7
4GG/	.	.	4GG/	8	.	4GG/]	.	8.b\L	.	8.dd\L	.
!	!	!	!	!	!	!	!	!LO:TX:t=P:problem:♭above	!	!	!
!	!	!	!	!	!	!	!	!LO:N:acc=-	!	!	!
.	.	.	.	.	.	.	.	16ccn\K	.	16ee\Jk	.
!	!	!	!	!	!	!	!	!	!	!LO:N:acc=-	!
4GG/	-7	.	4GG/	- 7 1	.	4GG/	.	8dd\	.	8.ffn\L	.
!	!	!	!	!	!	!	!	!LO:SIC:v:t=custos cc	!	!	!
.	.	.	.	.	.	.	.	8b\J	.	.	.
.	.	.	.	.	.	.	.	.	.	16ee\Jk	.
!	!	!	!	!	!	!	!	!LO:LB:g=original	!	!LO:LB:g=original	!
!LO:N:acc=-	!	!	!LO:N:acc=-	!	!	!LO:N:acc=-	!	!LO:N:acc=-	!	!	!
4Cn/	5	.	4Cn/	5	.	4Cn/	.	8ccn\L	.	4ee\	.
.	6	.	.	6	.	.	.	8a\J	.	.	.
!LO:SIC:v:t=custos D	!	!	!LO:SIC:v:t=custos D	!	!	!LO:TX:t=P:problem:kreska pseudotaktowa	!	!	!	!LO:TX:t=P:problem:kreska pseudotaktowa	!
4C#X/	6	.	4C#X/	6	.	4C#X/	.	8e/L	.	4r	.
.	.	.	.	.	.	.	.	16f#/L	.	.	.
!	!	!	!	!	!	!	!	!LO:TX:t=P:problem:kreska pseudotaktowa	!	!	!
.	.	.	.	.	.	.	.	16g/JJ	.	.	.
!	!	!	!LO:LB:g=original	!	!	!	!	!	!	!	!
=8	=8	=8	=8	=8	=8	=8	=8	=8	=8	=8	=8
4.D/	5	.	4.D/	5	.	4.D/	.	4.f#/	.	8r	.
.	.	.	.	.	.	.	.	.	.	8dd\	.
.	.	.	.	.	.	.	.	.	.	8a\L	.
8D/	6	.	8D/	6	.	8D/	.	8f#/	.	16b\L	.
!	!	!	!	!	!	!	!	!	!	!LO:TX:t=P:problem:♭above	!
!LO:LB:g=original	!	!	!	!	!	!	!	!	!	!LO:N:acc=-	!
.	.	.	.	.	.	.	.	.	.	16ccn\JJ	.
!	!	!	!	!	!	!	!	!	!	!LO:TX:t=P:problem:mixed beam	!
8G\L	-6	.	8G\L	4 6	.	8G\L	.	8g/	.	8b/L	.
!	!	!	!	!	!	!	!	!LO:N:acc=-	!	!	!
8E\	.	.	8E\	.	.	8E\	.	4ccn\	.	8gg\J	.
!LO:N:acc=-	!	!	!LO:N:acc=-	!	!	!LO:TX:t=P:problem:♭above	!	!	!	!	!
!LO:TX:t=P:problem:♭above	!	!	!LO:TX:t=P:problem:♭above	!	!	!LO:N:acc=-	!	!	!	!	!
8Fn\	6 5	.	8Fn\	6 5	.	8Fn\	.	.	.	8dd\L	.
!LO:TX:t=P:problem:kreska pseudotaktowa	!	!	!LO:TX:t=P:problem:kreska pseudotaktowa	!	!	!LO:TX:t=P:problem:kreska pseudotaktowa	!	!LO:TX:t=P:problem:kreska pseudotaktowa	!	!	!
8G\J	.	.	8G\J	.	.	8G\J	.	8b/	.	16ee\L	.
!	!	!	!	!	!	!	!	!	!	!LO:TX:t=P:problem:kreska pseudotaktowa	!
!	!	!	!	!	!	!	!	!	!	!LO:TX:t=P:problem:♭above	!
!	!	!	!	!	!	!	!	!	!	!LO:N:acc=-	!
.	.	.	.	.	.	.	.	.	.	16ffn\JJ	.
=9	=9	=9	=9	=9	=9	=9	=9	=9	=9	=9	=9
!LO:N:acc=-	!	!	!LO:N:acc=-	!	!	!LO:N:acc=-	!	!LO:N:acc=-	!	!	!
[2Cn/	5	.	[2Cn/	5	.	2.Cn/	.	8ccn\L	.	8ee\L	.
.	.	.	.	.	.	.	.	8cc\J	.	8ee\J	.
!	!	!	!	!	!	!	!	!	!	!LO:N:acc=-	!
.	6	.	.	6	.	.	.	8a\L	.	8ccn\L	.
.	.	.	.	.	.	.	.	16b\L	.	16dd\L	.
.	.	.	.	.	.	.	.	16cc\JJ	.	16ee\JJ	.
4C/]	#4 2	.	4C/]	#4 2	.	.	.	4.d/	.	4f#X/	.
4BB/	6	.	4BB/	6	.	4BB/	.	.	.	2g/	.
!	!	!	!	!	!	!	!	!LO:N:acc=-	!	!	!
.	.	.	.	.	.	.	.	16cn/LL	.	.	.
.	.	.	.	.	.	.	.	16B/JJ	.	.	.
=10-	=10	=10	=10-	=10	=10	=10-	=10	=10-	=10	=10-	=10
!LO:N:acc=-	!	!	!LO:N:acc=-	!	!	!LO:N:acc=-	!	!	!	!	!
4Cn/	6 5	.	4Cn/	6 5	.	4Cn/	.	4.A/	.	.	.
!	!	!	!	!	!	!LO:TX:t=P:problem:mixed beam	!	!	!	!	!
4D/	.	.	4D/	#	.	8D\L	.	.	.	4f#X/	.
!	!	!	!	!	!	!LO:SIC:v:t=custos GG	!	!	!	!	!
.	.	.	.	.	.	8DD/J	.	8A/	.	.	.
!	!	!	!	!	!	!LO:LB:g=original	!	!	!	!	!
!	!	!	!	!	!	!LO:TX:t=P:problem:mixed beam	!	!	!	!LO:TX:t=P:problem:kreska pseudotaktowa	!
4G\	.	.	4G\	.	.	8GG/L	.	4B/	.	2g/	.
.	.	.	.	.	.	8G\J	.	.	.	.	.
!LO:TX:t=P:problem:kreska pseudotaktowa	!	!	!LO:TX:t=P:problem:kreska pseudotaktowa	!	!	!	!	!LO:TX:t=P:problem:kreska pseudotaktowa	!	!	!
4E\	.	.	4E\	5 3	.	8E\L	.	4b\	.	.	.
!	!	!	!	!	!	!LO:SIC:v:s=16Fn\	!	!	!	!	!
.	.	.	.	.	.	16F#\L	.	.	.	.	.
!	!	!	!	!	!	!LO:TX:t=P:problem:kreska pseudotaktowa	!	!	!	!	!
.	.	.	.	.	.	16G\JJ	.	.	.	.	.
=11	=11	=11	=11	=11	=11	=11	=11	=11	=11	=11	=11
!LO:N:acc=-	!	!	!LO:N:acc=-	!	!	!LO:N:acc=-	!	!LO:N:acc=-	!	!	!
4Cn/	.	.	4Cn/	.	.	8Cn\L	.	1ccn\	.	4r	.
.	.	.	.	.	.	16D\L	.	.	.	.	.
.	.	.	.	.	.	16E\JJ	.	.	.	.	.
4AA/	-	.	4AA/	-	.	8AA/L	.	.	.	4ee\	.
.	.	.	.	.	.	16BB/L	.	.	.	.	.
!	!	!	!	!	!	!LO:TX:a:t=c	!	!	!	!	!
.	.	.	.	.	.	16C/JJ	.	.	.	.	.
!	!	!	!	!	!	!LO:SIC:v:s=8F#/L	!	!	!	!	!
!	!	!	!	!	!	!LO:N:acc=-	!	!	!	!	!
4FF#/	6- 5	.	4FF#/	6- 5	.	8FFn/L	.	.	.	[2dd\	.
.	.	.	.	.	.	16GG/L	.	.	.	.	.
.	.	.	.	.	.	16AA/JJ	.	.	.	.	.
!LO:TX:t=P:problem:kreska pseudotaktowa	!	!	!LO:TX:t=P:problem:kreska pseudotaktowa	!	!	!	!	!	!	!	!
4DD/	-7 #	.	4DD/	- 7 #	.	8DD/L	.	.	.	.	.
.	.	.	.	.	.	16EE/L	.	.	.	.	.
!	!	!	!	!	!	!LO:TX:t=P:problem:kreska pseudotaktowa	!	!	!	!	!
!	!	!	!	!	!	!LO:SIC:v:s=16F#/J	!	!	!	!	!
.	.	.	.	.	.	16FF/JJ	.	.	.	.	.
=12	=12	=12	=12	=12	=12	=12	=12	=12-	=12	=12-	=12
4GG/	.	.	4GG/	- 6	.	8GG/L	.	4b/	.	4dd\]	.
.	.	.	.	.	.	16AA/L	.	.	.	.	.
.	.	.	.	.	.	16BB/JJ	.	.	.	.	.
!	!	!	!	!	!	!	!	!LO:N:acc=-	!	!	!
8EE/L	.	.	8EE/L	.	.	8EE/L	.	8ccn\L	.	8ee\L	.
!	!	!	!	!	!	!LO:SIC:v:s=16Fn/L	!	!	!	!	!
8GG/J	.	.	8GG/J	.	.	16FF#/L	.	8b\J	.	8dd\J	.
.	.	.	.	.	.	16GG/JJ	.	.	.	.	.
!	!	!	!	!	!	!LO:TX:t=P:problem:kreska pseudotaktowa	!	!	!	!	!
!LO:N:acc=-	!	!	!LO:N:acc=-	!	!	!LO:N:acc=-	!	!	!	!	!
2Cn/	5	.	2Cn/	5 6	.	2Cn/	.	8cc\L	.	8ee\L	.
.	6	.	.	.	.	.	.	16dd\L	.	16ff#\L	.
.	.	.	.	.	.	.	.	16ee\JJ	.	16gg\JJ	.
!	!	!	!	!	!	!	!	!	!	!LO:N:acc=-	!
.	.	.	.	.	.	.	.	8a/L	.	8ccn\L	.
.	.	.	.	.	.	.	.	16b/L	.	16dd\L	.
!	!	!	!	!	!	!	!	!LO:TX:t=P:problem:kreska pseudotaktowa	!	!LO:TX:t=P:problem:kreska pseudotaktowa	!
.	.	.	.	.	.	.	.	16cc/JJ	.	16ee\JJ	.
=13-	=13	=13	=13-	=13	=13	=13	=13	=13	=13	=13	=13
4D/	.	.	4D/	.	.	4D/	.	8f#/L	.	8a\L	.
.	.	.	.	.	.	.	.	16g/L	.	16b\L	.
!	!	!	!	!	!	!	!	!	!	!LO:TX:t=P:problem:♭above	!
!	!	!	!	!	!	!	!	!	!	!LO:N:acc=-	!
.	.	.	.	.	.	.	.	16a/JJ	.	16ccn\JJ	.
4BB/	6	.	4BB/	6	.	4BB/	.	8b/L	.	8dd\L	.
!	!	!	!	!	!	!	!	!	!	!LO:TX:t=P:problem:♭above	!
!	!	!	!	!	!	!	!	!	!	!LO:N:acc=-	!
.	.	.	.	.	.	.	.	16a/L	.	16ccn\L	.
.	.	.	.	.	.	.	.	16b/JJ	.	16dd\JJ	.
!LO:N:acc=-	!	!	!LO:N:acc=-	!	!	!LO:N:acc=-	!	!	!	!	!
8Cn/L	6	.	8Cn/L	6	.	8Cn/L	.	8e/L	.	4.a/	.
8D/J	.	.	8D/J	.	.	8D/J	.	8f#/J	.	.	.
!LO:TX:t=P:problem:kreska pseudotaktowa	!	!	!LO:TX:t=P:problem:kreska pseudotaktowa	!	!	!	!	!	!	!	!
4E\	6\	.	4E\	6\	.	4E\	.	4g/	.	.	.
.	.	.	.	.	.	.	.	.	.	8a/	.
!	!	!	!	!	!	!	!	!LO:LB:g=original	!	!LO:LB:g=original	!
=14	=14	=14	=14	=14	=14	=14-	=14	=14	=14	=14-	=14
4D/	.	.	4D/	.	.	4D/	.	4f#/	.	2a/	.
!LO:N:acc=-	!	!	!LO:N:acc=-	!	!	!LO:N:acc=-	!	!	!	!	!
4Cn/	6 5	.	4Cn/	6 5	.	4Cn/	.	2g/	.	.	.
4D/	4	.	4D/	4	.	4D/	.	.	.	4.a/	.
!LO:SIC:v:t=custos GG	!	!	!LO:SIC:v:t=custos GG	!	!	!	!	!	!	!	!
4DD/	#	.	4DD/	#	.	4DD/	.	4f#/	.	.	.
.	.	.	.	.	.	.	.	.	.	8a/	.
!	!	!	!LO:LB:g=original	!	!	!	!	!	!	!	!
=15	=15	=15	=15	=15	=15	=15-	=15	=15-	=15	=15-	=15
*M6/4	*	*	*M6/4	*	*	*M6/4	*	*M6/4	*	*M6/4	*
4GG/	.	.	4GG/	.	.	4GG/	.	4g/	.	4b/	.
2G\	.	.	2G\	.	.	4.G\	.	4.g/	.	4.b/	.
.	.	.	.	.	.	8G\	.	8g/	.	8b/	.
4D/	.	.	4D/	.	.	4D/	.	4f#/	.	4a/	.
!LO:TX:t=P:problem:kreska pseudotaktowa	!	!	!LO:TX:t=P:problem:kreska pseudotaktowa	!	!	!	!	!	!	!	!
2DD/	.	.	2DD/	.	.	4.DD/	.	4.dd\	.	4.ff#\	.
!	!	!	!	!	!	!LO:TX:t=P:problem:kreska pseudotaktowa	!	!LO:TX:t=P:problem:kreska pseudotaktowa	!	!LO:TX:t=P:problem:kreska pseudotaktowa	!
.	.	.	.	.	.	8DD/	.	8dd\	.	8ff#\	.
!LO:LB:g=original	!	!	!	!	!	!	!	!	!	!	!
=16	=16	=16	=16	=16	=16	=16	=16	=16	=16	=16	=16
4AA/	.	.	4AA/	.	.	4AA/	.	4cc#\	.	4ee\	.
2FF#/	6	.	2FF#/	6	.	4.FF#/	.	4.a/	.	4.aa\	.
.	.	.	.	.	.	8FF#/	.	8a/	.	8aa\	.
!LO:TX:t=P:problem:kreska pseudotaktowa	!	!	!LO:TX:t=P:problem:kreska pseudotaktowa	!	!	!	!	!	!	!	!
2.GG/	9	.	2.GG/	9 3	.	4GG/	.	4b/	.	4aa\	.
.	8	.	.	.	.	4.GG/	.	4.b/	.	4.gg\	.
!	!	!	!	!	!	!LO:SIC:v:t=custos AA	!	!LO:TX:t=P:problem:kreska pseudotaktowa	!	!LO:TX:t=P:problem:kreska pseudotaktowa	!
.	.	.	.	8	.	8GG/	.	8b/	.	8gg\	.
!	!	!	!	!	!	!LO:LB:g=original	!	!	!	!	!
=17	=17	=17	=17	=17	=17	=17-	=17	=17	=17	=17	=17
2AA/	7	.	2AA/	7 #	.	2AA/	.	2cc#\	.	4.gg\	.
.	.	.	.	.	.	.	.	.	.	8ff#\L	.
4BB/	.	.	4BB/	.	.	4BB/	.	4dd\	.	8ff#\	.
.	.	.	.	.	.	.	.	.	.	8ee\J	.
4GG/	6 5	.	4GG/	6 5	.	4GG/	.	4dd\	.	4ff#\	.
!LO:TX:t=P:problem:kreska pseudotaktowa	!	!	!LO:TX:t=P:problem:kreska pseudotaktowa	!	!	!	!	!	!	!	!
2AA/	4	.	2AA/	4	.	4.AA/	.	4.dd\	.	4.ee\	.
!	!	!	!	!	!	!LO:TX:t=P:problem:kreska pseudotaktowa	!	!LO:TX:t=P:problem:kreska pseudotaktowa	!	!LO:TX:t=P:problem:kreska pseudotaktowa	!
.	3	.	.	#	.	8AA/	.	8cc#\	.	8ee\	.
=18	=18	=18	=18	=18	=18	=18	=18	=18	=18	=18	=18
4D/	.	.	4D/	.	.	4DD/	.	4dd\	.	4ff#\	.
2BB/	6	.	2BB/	6	.	4.BB/	.	4.d/	.	4.dd\	.
.	.	.	.	.	.	8BB/	.	8d/	.	8dd\	.
!LO:N:acc=-	!	!	!LO:N:acc=-	!	!	!LO:N:acc=-	!	!	!	!	!
4Cn/	9	.	4Cn/	9	.	4Cn/	.	4e/	.	4dd\	.
!LO:TX:t=P:problem:kreska pseudotaktowa	!	!	!LO:TX:t=P:problem:kreska pseudotaktowa	!	!	!	!	!	!	!LO:N:acc=-	!
2C/	8	.	2C/	8	.	4.C/	.	4.e/	.	4.ccn\	.
!	!	!	!	!	!	!LO:TX:t=P:problem:kreska pseudotaktowa	!	!LO:TX:t=P:problem:kreska pseudotaktowa	!	!LO:TX:t=P:problem:kreska pseudotaktowa	!
.	.	.	.	.	.	8C/	.	8e/	.	8cc\	.
=19	=19	=19	=19	=19	=19	=19	=19	=19	=19	=19	=19
!	!	!	!	!	!	!	!	!	!	!LO:SIC:v:s=4.ccn\	!
2D/	7	.	2D/	7 #	.	2D/	.	2f#/	.	4.cc#\	.
.	.	.	.	.	.	.	.	.	.	8b/L	.
4E\	.	.	4E\	.	.	4E\	.	4g/	.	8b/	.
!	!	!	!	!	!	!	!	!	!	!LO:SIC:v:t=custos b	!
.	.	.	.	.	.	.	.	.	.	8a/J	.
!	!	!	!	!	!	!	!	!	!	!LO:LB:g=original	!
!LO:SIC:v:s=4Cn/	!	!	!LO:SIC:v:s=4Cn/	!	!	!LO:N:acc=-	!	!	!	!	!
4C#/	6 5	.	4C#/	6 5	.	4Cn/	.	4g/	.	4b/	.
!LO:TX:t=P:problem:kreska pseudotaktowa	!	!	!LO:TX:t=P:problem:kreska pseudotaktowa	!	!	!	!	!	!	!	!
2D/	.	.	2D/	4	.	4.D/	.	4.g/	.	4.a/	.
!	!	!	!	!	!	!LO:TX:t=P:problem:kreska pseudotaktowa	!	!LO:SIC:v:t=custos g	!	!LO:TX:t=P:problem:kreska pseudotaktowa	!
.	.	.	.	#	.	8DD/	.	8f#/	.	8a/	.
!	!	!	!	!	!	!	!	!LO:LB:g=original	!	!	!
=20	=20	=20	=20	=20	=20	=20	=20	=20-	=20	=20	=20
4GG/	.	.	4GG/	.	.	4GG/	.	4g/	.	4b\	.
!	!	!	!	!	!	!	!LO:DY:t=piano	!	!LO:DY:a:t=piano	!	!LO:DY:t=piano
2BB/	6	.	2BB/	6	.	4.BB/	p	4.d/	p	4.dd\	p
.	.	.	.	.	.	8BB/	.	8d/	.	8dd\	.
!LO:N:acc=-	!	!LO:DY:t=piano	!LO:N:acc=-	!	!LO:DY:t=piano	!LO:N:acc=-	!	!	!	!	!
4Cn/	9	p	4Cn/	9	p	4Cn/	.	4e/	.	4dd\	.
!LO:TX:t=P:problem:kreska pseudotaktowa	!	!	!LO:TX:t=P:problem:kreska pseudotaktowa	!	!	!	!	!	!	!LO:N:acc=-	!
2C/	8	.	2C/	8	.	4.C/	.	4.e/	.	4.ccn\	.
!	!	!	!	!	!	!LO:TX:t=P:problem:kreska pseudotaktowa	!	!LO:TX:t=P:problem:kreska pseudotaktowa	!	!LO:TX:t=P:problem:kreska pseudotaktowa	!
.	.	.	.	.	.	8C/	.	8e/	.	8cc\	.
=21	=21	=21	=21	=21	=21	=21	=21	=21	=21	=21	=21
!	!	!	!	!	!	!	!	!	!	!LO:SIC:v:s=4.ccn\	!
2D/	7	.	2D/	7 #	.	2D/	.	2f#/	.	4.cc#\	.
.	.	.	.	.	.	.	.	.	.	8b/L	.
4E\	.	.	4E\	.	.	4E\	.	4g/	.	8b/	.
.	.	.	.	.	.	.	.	.	.	8a/J	.
!LO:SIC:v:s=4Cn/	!	!	!LO:SIC:v:s=4Cn/	!	!	!LO:SIC:v:s=4Cn/	!	!	!	!	!
4C#/	.	.	4C#/	.	.	4C#/	.	4g/	.	4b/	.
!LO:SIC:v:t=custos GG	!	!	!LO:SIC:v:t=custos GG	!	!	!	!	!	!	!	!
2D/	4	.	2D/	4	.	4.D/	.	4.g/	.	4.a/	.
!	!	!	!	!	!	!LO:TX:t=P:problem:kreska pseudotaktowa	!	!LO:TX:t=P:problem:kreska pseudotaktowa	!	!LO:TX:t=P:problem:kreska pseudotaktowa	!
.	3	.	.	#	.	8DD/	.	8f#/	.	8a/	.
!	!	!	!LO:LB:g=original	!	!	!	!	!	!	!	!
=22-	=22	=22	=22-	=22	=22	=22	=22	=22	=22	=22	=22
1.GG/	.	.	1.GG/	.	.	2GG/	.	2g/	.	2b/	.
.	.	.	.	.	.	4r	.	4r	.	4r	.
.	.	.	.	.	.	2.r;	.	2.r;	.	2.r	.
!	!	!	!	!	!	!LO:LB:g=original	!	!	!	!	!
=23||	=23||	=23||	=23||	=23||	=23||	=23||	=23||	=23||	=23||	=23||	=23||
*M2/2	*	*	*M2/2	*	*	*M2/2	*	*M2/2	*	*M2/2	*
*met(c|)	*	*	*met(c|)	*	*	*met(c|)	*	*met(c|)	*	*met(c|)	*
!	!	!	!LO:TX:rj:b:t=Senza Accompagnamento	!	!	!LO:TX:rj:b:t=Allegro	!	!LO:TX:rj:b:t=Allegro	!	!LO:TX:a:t=3.	!
8D/L	.	.	8D/L	.	.	8D/L	.	1r	.	0r	.
8GG/J	.	.	8GG/J	.	.	8GG/J	.	.	.	.	.
8E\L	.	.	8E\L	.	.	8E\L	.	.	.	.	.
16D\L	.	.	16D\L	.	.	16D\L	.	.	.	.	.
!LO:SIC:v:s=16Cn\J	!	!	!LO:SIC:v:s=16Cn\J	!	!	!LO:N:acc=-	!	!	!	!	!
16C#\JJ	.	.	16C#\JJ	.	.	16Cn\JJ	.	.	.	.	.
!LO:LB:g=original	!	!	!	!	!	!	!	!	!	!	!
8D/L	.	.	8D/L	.	.	8D/L	.	.	.	.	.
8GG/J	.	.	8GG/J	.	.	8GG/J	.	.	.	.	.
8G\L	.	.	8G\L	.	.	8G\L	.	.	.	.	.
16F#\L	.	.	16F#\L	.	.	16F#\L	.	.	.	.	.
!LO:TX:t=P:problem:kreska pseudotaktowa	!	!	!LO:TX:t=P:problem:kreska pseudotaktowa	!	!	!LO:TX:t=P:problem:kreska pseudotaktowa	!	!	!	!	!
16G\JJ	.	.	16G\JJ	.	.	16G\JJ	.	.	.	.	.
=24	=24	=24	=24	=24	=24	=24	=24	=24-	=24	=24-	=24
16A\LL	.	.	16A\LL	.	.	16A\LL	.	2r	.	.	.
16G\	.	.	16G\	.	.	16G\	.	.	.	.	.
16F#\	.	.	16F#\	.	.	16F#\	.	.	.	.	.
16E\JJ	.	.	16E\JJ	.	.	16E\JJ	.	.	.	.	.
16D\LL	.	.	16D\LL	.	.	16D\LL	.	.	.	.	.
16E\	.	.	16E\	.	.	16E\	.	.	.	.	.
!	!	!	!	!	!	!LO:TX:t=P:problem:♭above	!	!	!	!	!
!LO:N:acc=-	!	!	!LO:N:acc=-	!	!	!LO:N:acc=-	!	!	!	!	!
16Cn\	.	.	16Cn\	.	.	16Cn\	.	.	.	.	.
16D\JJ	.	.	16D\JJ	.	.	16D\JJ	.	.	.	.	.
4BB/	6	.	4BB/	6	.	4BB/	.	8g/L	.	.	.
!	!	!	!	!	!	!	!	!LO:TX:a:t=d	!	!	!
.	.	.	.	.	.	.	.	8d/J	.	.	.
!LO:TX:t=P:problem:kreska pseudotaktowa	!	!	!LO:TX:t=P:problem:kreska pseudotaktowa	!	!	!LO:TX:t=P:problem:kreska pseudotaktowa	!	!	!	!	!
4GG/	.	.	4GG/	.	.	4GG/	.	8b/L	.	.	.
.	.	.	.	.	.	.	.	16a/L	.	.	.
!	!	!	!	!	!	!	!	!LO:TX:t=P:problem:kreska pseudotaktowa	!	!	!
.	.	.	.	.	.	.	.	16g/JJ	.	.	.
=25	=25	=25	=25	=25	=25	=25	=25	=25	=25	=25-	=25
4D/	.	.	4D/	.	.	4D/	.	8a/L	.	1r	.
.	.	.	.	.	.	.	.	8d/J	.	.	.
4D/	.	.	4D/	.	.	8r	.	8dd\L	.	.	.
.	.	.	.	.	.	8D/	.	16cc#\L	.	.	.
.	.	.	.	.	.	.	.	16dd\JJ	.	.	.
4.C#X/	6	.	4.C#X/	6	.	4.C#/	.	16ee\LL	.	.	.
.	.	.	.	.	.	.	.	16dd\	.	.	.
.	.	.	.	.	.	.	.	16cc#\	.	.	.
.	.	.	.	.	.	.	.	16b\JJ	.	.	.
.	.	.	.	.	.	.	.	16a/LL	.	.	.
.	.	.	.	.	.	.	.	16b/	.	.	.
!LO:TX:t=P:problem:kreska pseudotaktowa	!	!	!LO:TX:t=P:problem:kreska pseudotaktowa	!	!	!LO:TX:t=P:problem:kreska pseudotaktowa	!	!	!	!	!
8C#/	.	.	8C#/	.	.	8C#/	.	16g/	.	.	.
!	!	!	!	!	!	!	!	!LO:TX:t=P:problem:kreska pseudotaktowa	!	!	!
.	.	.	.	.	.	.	.	16a/JJ	.	.	.
=26	=26	=26	=26	=26	=26	=26	=26	=26	=26	=26-	=26
!	!	!	!	!	!	!	!	!	!	!LO:TX:rj:b:t=Allegro	!
4D/	.	.	4D/	.	.	4D/	.	16f#/LL	.	2r	.
.	.	.	.	.	.	.	.	16a/	.	.	.
.	.	.	.	.	.	.	.	16b/	.	.	.
!	!	!	!	!	!	!	!	!LO:SIC:v:t=custos dd	!	!	!
.	.	.	.	.	.	.	.	16cc#/JJ	.	.	.
!	!	!	!	!	!	!	!	!LO:LB:g=original	!	!	!
!	!	!	!	!	!	!	!	!LO:TX:t=P:problem:mixed beam	!	!	!
4DD/	.	.	4DD/	.	.	4DD/	.	16dd\LL	.	.	.
.	.	.	.	.	.	.	.	16f#/	.	.	.
.	.	.	.	.	.	.	.	16g/	.	.	.
.	.	.	.	.	.	.	.	16a/JJ	.	.	.
!	!	!	!	!	!	!	!	!	!	!LO:TX:t=P:problem:mixed beam	!
4GG/	.	.	4GG/	.	.	4GG/	.	4b/	.	8dd\L	.
.	.	.	.	.	.	.	.	.	.	8g/J	.
!LO:TX:t=P:problem:kreska pseudotaktowa	!	!	!LO:TX:t=P:problem:kreska pseudotaktowa	!	!	!	!	!	!	!	!
!LO:N:acc=-	!	!	!LO:N:acc=-	!	!	!LO:TX:t=P:problem:kreska pseudotaktowa	!	!LO:N:acc=-	!	!	!
4Cn/	.	.	4Cn/	.	.	4r	.	8ccn\L	.	8ee\L	.
.	.	.	.	.	.	.	.	16b\L	.	16dd\L	.
!	!	!	!	!	!	!	!	!	!	!LO:TX:t=P:problem:kreska pseudotaktowa	!
!	!	!	!	!	!	!	!	!LO:TX:t=P:problem:kreska pseudotaktowa	!	!LO:SIC:v:s=16ccn/JJ	!
.	.	.	.	.	.	.	.	16a\JJ	.	16cc#\JJ	.
=27	=27	=27	=27	=27	=27	=27	=27	=27	=27	=27	=27
!	!	!	!	!	!	!	!	!	!	!LO:TX:t=P:problem:mixed beam	!
4GG/	.	.	4GG/	.	.	4r	.	4b/	.	8dd\L	.
.	.	.	.	.	.	.	.	.	.	8g/J	.
4G\	.	.	4G\	.	.	8r	.	8r	.	8gg\L	.
.	.	.	.	.	.	8G\	.	8b/	.	16ff#\L	.
.	.	.	.	.	.	.	.	.	.	16gg\JJ	.
4.F#\	6	.	4.F#\	6	.	4.F#\	.	4.a/	.	16aa\LL	.
.	.	.	.	.	.	.	.	.	.	16gg\	.
.	.	.	.	.	.	.	.	.	.	16ff#\	.
.	.	.	.	.	.	.	.	.	.	16ee\JJ	.
!	!	!	!	!	!	!	!	!	!	!LO:LB:g=original	!
.	.	.	.	.	.	.	.	.	.	16dd\LL	.
.	.	.	.	.	.	.	.	.	.	16ee\	.
!	!	!	!	!	!	!	!	!	!	!LO:N:acc=-	!
!LO:SIC:v:t=custos G	!	!	!LO:SIC:v:t=custos G	!	!	!LO:TX:t=P:problem:kreska pseudotaktowa	!	!LO:TX:t=P:problem:kreska pseudotaktowa	!	!LO:TX:t=P:problem:♭above	!
8F#\	.	.	8F#\	.	.	8F#\	.	8a/	.	16ccn\	.
!	!	!	!	!	!	!	!	!	!	!LO:TX:t=P:problem:kreska pseudotaktowa	!
.	.	.	.	.	.	.	.	.	.	16dd\JJ	.
!	!	!	!LO:LB:g=original	!	!	!	!	!	!	!	!
=28	=28	=28	=28	=28	=28	=28	=28	=28	=28	=28	=28
4G\	.	.	4G\	.	.	4G\	.	4g/	.	8b/L	.
.	.	.	.	.	.	.	.	.	.	8b/J	.
8F#\L	6	.	8F#\L	6	.	8F#\L	.	8r	.	8a/L	.
16E\L	.	.	16E\L	.	.	16E\L	.	8dd\	.	16g/L	.
16D\JJ	.	.	16D\JJ	.	.	16D\JJ	.	.	.	16f#/JJ	.
!LO:TX:t=P:problem:mixed beam	!	!	!LO:TX:t=P:problem:mixed beam	!	!	!LO:TX:t=P:problem:mixed beam	!	!	!	!	!
8E\L	6\	.	8E\L	6\ 3	.	8E\L	.	4.cc#\	.	4g/	.
8AA/J	.	.	8AA/J	.	.	8AA/J	.	.	.	.	.
!LO:TX:t=P:problem:kreska pseudotaktowa	!	!	!LO:TX:t=P:problem:kreska pseudotaktowa	!	!	!	!	!	!	!LO:TX:t=P:problem:kreska pseudotaktowa	!
4A\	.	.	4A\	.	.	8A\L	.	.	.	4e/	.
!	!	!	!	!	!	!	!	!LO:TX:t=P:problem:kreska pseudotaktowa	!	!	!
.	.	.	.	.	.	16G\L	.	8cc#\	.	.	.
!	!	!	!	!	!	!LO:TX:t=P:problem:kreska pseudotaktowa	!	!	!	!	!
.	.	.	.	.	.	16A\JJ	.	.	.	.	.
!LO:LB:g=original	!	!	!	!	!	!	!	!	!	!	!
=29-	=29	=29	=29	=29	=29	=29	=29	=29	=29	=29	=29
!	!	!	!	!	!	!LO:TX:t=P:problem:mixed beam	!	!	!	!	!
4B\	.	.	4B\	.	.	8B\L	.	4.dd\	.	4d/	.
.	.	.	.	.	.	8BB/J	.	.	.	.	.
8BB/L	.	.	8BB/L	.	.	8BB/L	.	.	.	8r	.
!	!	!	!	!	!	!	!	!LO:N:acc=-	!	!	!
16AA/L	-	.	16AA/L	-	.	16AA/L	.	16ccn\LL	.	8gg\	.
!	!	!	!	!	!	!LO:SIC:v:t=custos AA	!	!	!	!	!
16GG/JJ	.	.	16GG/JJ	.	.	16GG/JJ	.	16b\JJ	.	.	.
!	!	!	!	!	!	!LO:LB:g=original	!	!	!	!	!
8AA/L	6	.	8AA/L	6\ -	.	8AA/L	.	4cc\	.	4.ff#\	.
8DD/J	.	.	8DD/J	.	.	8DD/J	.	.	.	.	.
!LO:TX:t=P:problem:kreska pseudotaktowa	!	!	!LO:TX:t=P:problem:kreska pseudotaktowa	!	!	!	!	!LO:TX:t=P:problem:kreska pseudotaktowa	!	!	!
4D/	.	.	4D/	.	.	8D/L	.	4a/	.	.	.
!	!	!	!	!	!	!LO:SIC:v:s=16Cn/	!	!	!	!LO:TX:t=P:problem:kreska pseudotaktowa	!
.	.	.	.	.	.	16C#/L	.	.	.	8ff#\	.
!	!	!	!	!	!	!LO:TX:t=P:problem:kreska pseudotaktowa	!	!	!	!	!
.	.	.	.	.	.	16D/JJ	.	.	.	.	.
=30	=30	=30	=30	=30	=30	=30	=30	=30	=30	=30	=30
16E\LL	.	.	16E\LL	.	.	16E\LL	.	16g/LL	.	4gg\	.
16D\	.	.	16D\	.	.	16D\	.	16f#/	.	.	.
!LO:TX:t=P:problem:♭above	!	!	!LO:TX:t=P:problem:♭above	!	!	!LO:TX:t=P:problem:♭above	!	!	!	!	!
!LO:N:acc=-	!	!	!LO:N:acc=-	!	!	!LO:N:acc=-	!	!	!	!	!
16Cn\	.	.	16Cn\	.	.	16Cn\	.	16e/	.	.	.
16BB\JJ	.	.	16BB\JJ	.	.	16BB\JJ	.	16d/JJ	.	.	.
!	!	!	!	!	!	!	!	!LO:N:acc=-	!	!	!
!	!	!	!	!	!	!	!	!LO:TX:t=P:problem:♭above	!	!	!
8AA/L	-	.	8AA/L	-	.	16AA/L	.	16cn/LL	.	4r	.
.	.	.	.	.	.	16BB/	.	16d/	.	.	.
8GG/J	.	.	8GG/J	.	.	16GG/	.	16B/	.	.	.
.	.	.	.	.	.	16AA/J	.	16c/JJ	.	.	.
!LO:TX:t=P:problem:kreska pseudotaktowa	!	!	!LO:TX:t=P:problem:kreska pseudotaktowa	!	!	!	!	!	!	!	!
2FF#/	6	.	2FF#/	6	.	4.FF#/	.	4.A/	.	16aa\LL	.
.	.	.	.	.	.	.	.	.	.	16gg\	.
.	.	.	.	.	.	.	.	.	.	16ff#\	.
.	.	.	.	.	.	.	.	.	.	16ee\JJ	.
.	.	.	.	.	.	.	.	.	.	16dd\LL	.
.	.	.	.	.	.	.	.	.	.	16ee\	.
!	!	!	!	!	!	!	!	!	!	!LO:N:acc=-	!
!	!	!	!	!	!	!LO:TX:t=P:problem:kreska pseudotaktowa	!	!LO:TX:t=P:problem:kreska pseudotaktowa	!	!LO:TX:t=P:problem:♭above	!
.	.	.	.	.	.	8FF#/	.	8a/	.	16ccn\	.
!	!	!	!	!	!	!	!	!	!	!LO:TX:t=P:problem:kreska pseudotaktowa	!
.	.	.	.	.	.	.	.	.	.	16dd\JJ	.
=31	=31	=31	=31	=31	=31	=31	=31	=31	=31	=31	=31
4.GG/	.	.	4.GG/	.	.	4.GG/	.	16g/LL	.	16b\LL	.
!	!	!	!	!	!	!	!	!	!	!LO:SIC:v:s=16ccn\	!
.	.	.	.	.	.	.	.	16a/	.	16cc#\	.
.	.	.	.	.	.	.	.	16b/	.	16dd\	.
!	!	!	!	!	!	!	!	!	!	!LO:SIC:v:s=16cc\JJ	!
.	.	.	.	.	.	.	.	16a/JJ	.	16cc#\JJ	.
.	.	.	.	.	.	.	.	16g/LL	.	16b/LL	.
.	.	.	.	.	.	.	.	16f#/	.	16a/	.
8GG/	.	.	8GG/	.	.	8GG/	.	16e/	.	16g/	.
.	.	.	.	.	.	.	.	16d/JJ	.	16f#/JJ	.
8AA/L	.	.	8AA/L	.	.	8AA/L	.	4.d/	.	4.e/	.
8GG/J	.	.	8GG/J	.	.	8GG/	.	.	.	.	.
!LO:TX:t=P:problem:kreska pseudotaktowa	!	!	!LO:TX:t=P:problem:kreska pseudotaktowa	!	!	!	!	!	!	!	!
4AA/	4	.	4AA/	4	.	8.AA/	.	.	.	.	.
!	!	!	!	!	!	!	!	!LO:TX:t=P:problem:♯below	!	!LO:TX:t=P:problem:kreska pseudotaktowa	!
.	3	.	.	#	.	.	.	8c#X/	.	8e/	.
!	!	!	!	!	!	!LO:TX:t=P:problem:kreska pseudotaktowa	!	!	!	!	!
.	.	.	.	.	.	16AA/Jk	.	.	.	.	.
!	!	!	!	!	!	!	!	!LO:LB:g=original	!	!	!
=32	=32	=32	=32	=32	=32	=32	=32	=32-	=32	=32	=32
8D/L	.	.	8D/L	.	.	8D/L	.	4d/	.	4f#/	.
8AA/J	.	.	8AA/J	.	.	8AA/J	.	.	.	.	.
8F#\L	6	.	8F#\L	6	.	8F#\L	.	4r	.	8r	.
16E\L	.	.	16E\L	.	.	16E\L	.	.	.	8dd\	.
16D\JJ	.	.	16D\JJ	.	.	16D\JJ	.	.	.	.	.
!LO:TX:t=P:problem:mixed beam	!	!	!LO:TX:t=P:problem:mixed beam	!	!	!LO:TX:t=P:problem:mixed beam	!	!LO:TX:t=P:problem:kreska pseudotaktowa	!	!	!
8E\L	6	.	8E\L	6\	.	8E\L	.	2r	.	4.cc#\	.
8AA/J	.	.	8AA/J	.	.	8AA/J	.	.	.	.	.
4A\	.	.	4A\	.	.	8A\L	.	.	.	.	.
!	!	!	!	!	!	!	!	!	!	!LO:TX:t=P:problem:kreska pseudotaktowa	!
.	.	.	.	.	.	16G\L	.	.	.	8cc#\	.
!	!	!	!	!	!	!LO:TX:t=P:problem:kreska pseudotaktowa	!	!	!	!	!
.	.	.	.	.	.	16A\JJ	.	.	.	.	.
=33-	=33	=33	=33-	=33	=33	=33	=33	=33	=33	=33	=33
16B\LL	.	.	16B\LL	.	.	16B\LL	.	2r	.	16dd\LL	.
16A\	.	.	16A\	.	.	16A\	.	.	.	16cc#\	.
16G\	.	.	16G\	.	.	16G\	.	.	.	16b\	.
16F#\JJ	.	.	16F#\JJ	.	.	16F#\JJ	.	.	.	16a\JJ	.
!	!	!	!	!	!	!	!	!	!	!LO:LB:g=original	!
8E\L	.	.	8E\L	.	.	16E\LL	.	.	.	16g/LL	.
.	.	.	.	.	.	16F#\	.	.	.	16a/	.
!LO:SIC:v:t=custos C	!	!	!LO:SIC:v:t=custos C	!	!	!	!	!	!	!	!
8D\J	.	.	8D\J	.	.	16D\	.	.	.	16f#/	.
.	.	.	.	.	.	16E\JJ	.	.	.	16g/JJ	.
!	!	!	!LO:LB:g=original	!	!	!	!	!	!	!	!
8C#/L	6	.	8C#/L	6	.	8C#/L	.	4r	.	4e/	.
8AA/J	.	.	8AA/J	.	.	8AA/J	.	.	.	.	.
!	!	!	!	!	!	!	!	!LO:TX:t=P:problem:kreska pseudotaktowa	!	!	!
8.C#/L	.	.	8.C#/L	.	.	16C#/LL	.	4a/	.	8r	.
.	.	.	.	.	.	16D/	.	.	.	.	.
!	!	!	!	!	!	!	!	!	!	!LO:TX:t=P:problem:kreska pseudotaktowa	!
.	.	.	.	.	.	16C#/	.	.	.	8ee\	.
!LO:TX:t=P:problem:kreska pseudotaktowa	!	!	!LO:TX:t=P:problem:kreska pseudotaktowa	!	!	!LO:TX:t=P:problem:kreska pseudotaktowa	!	!	!	!	!
16D/Jk	.	.	16D/Jk	.	.	16D/JJ	.	.	.	.	.
!LO:LB:g=original	!	!	!	!	!	!	!	!	!	!	!
=34-	=34	=34	=34	=34	=34	=34	=34	=34	=34	=34	=34
!LO:TX:t=P:problem:mixed beam	!	!	!LO:TX:t=P:problem:mixed beam	!	!	!LO:TX:t=P:problem:mixed beam	!	!	!	!	!
8E\L	#	.	8E\L	#	.	8E\L	.	4.g#X/	.	4.b/	.
8D\	.	.	8D\	.	.	8D\	.	.	.	.	.
8E\	4	.	8E\	4	.	8E\	.	.	.	.	.
8EE/J	#	.	8EE/J	#	.	8EE/J	.	8g#/	.	8b/	.
4AA/	.	.	4AA/	.	.	4AA/	.	8.a/L	.	4cc#\	.
.	.	.	.	.	.	.	.	16g#/Jk	.	.	.
!LO:TX:t=P:problem:kreska pseudotaktowa	!	!	!LO:TX:t=P:problem:kreska pseudotaktowa	!	!	!	!	!LO:TX:t=P:problem:mixed beam	!	!LO:TX:t=P:problem:kreska pseudotaktowa	!
4D/	.	.	4D/	.	.	8r	.	8f#/L	.	4r	.
!	!	!	!	!	!	!LO:SIC:v:t=custos C	!	!LO:TX:t=P:problem:kreska pseudotaktowa	!	!	!
.	.	.	.	.	.	8D/	.	8dd\J	.	.	.
!	!	!	!	!	!	!LO:LB:g=original	!	!	!	!	!
=35	=35	=35	=35	=35	=35	=35	=35	=35	=35	=35	=35
4.C#/	6	.	4.C#/	6	.	4.C#/	.	16ee\LL	.	2r	.
.	.	.	.	.	.	.	.	16dd\	.	.	.
.	.	.	.	.	.	.	.	16cc#\	.	.	.
.	.	.	.	.	.	.	.	16b\JJ	.	.	.
.	.	.	.	.	.	.	.	16a/LL	.	.	.
.	.	.	.	.	.	.	.	16b/	.	.	.
8C#/	.	.	8C#/	.	.	8C#/	.	16g/	.	.	.
.	.	.	.	.	.	.	.	16a/JJ	.	.	.
!	!	!	!	!	!	!	!	!LO:TX:t=P:problem:mixed beam	!	!	!
4D/	.	.	4D/	.	.	4D/	.	16f#/LL	.	4r	.
.	.	.	.	.	.	.	.	16dd\	.	.	.
.	.	.	.	.	.	.	.	16cc#\	.	.	.
.	.	.	.	.	.	.	.	16dd\JJ	.	.	.
4G\	.	.	4G\	.	.	8r	.	16b/LL	.	8r	.
.	.	.	.	.	.	.	.	16g/	.	.	.
!	!	!	!	!	!	!	!	!	!	!LO:TX:t=P:problem:kreska pseudotaktowa	!
.	.	.	.	.	.	8G\	.	16b/	.	8bb\	.
!	!	!	!	!	!	!	!	!LO:TX:t=P:problem:kreska pseudotaktowa	!	!	!
.	.	.	.	.	.	.	.	16cc#/JJ	.	.	.
=36-	=36	=36	=36-	=36	=36	=36	=36	=36	=36	=36	=36
4.F#\	6	.	4.F#\	6	.	4.F#\	.	16dd\LL	.	4.aa\	.
.	.	.	.	.	.	.	.	16ee\	.	.	.
.	.	.	.	.	.	.	.	16ff#\	.	.	.
.	.	.	.	.	.	.	.	16ee\JJ	.	.	.
.	.	.	.	.	.	.	.	16dd\LL	.	.	.
.	.	.	.	.	.	.	.	16cc#\	.	.	.
8F#\	.	.	8F#\	.	.	8F#\	.	16b\	.	8aa\	.
.	.	.	.	.	.	.	.	16a\JJ	.	.	.
4.G\	5	.	4.G\	5	.	4.G\	.	4g/	.	16bb\LL	.
.	.	.	.	.	.	.	.	.	.	16aa\	.
.	.	.	.	.	.	.	.	.	.	16gg\	.
.	6	.	.	6	.	.	.	.	.	16ff#\JJ	.
!	!	!	!	!	!	!	!	!LO:TX:t=P:problem:kreska pseudotaktowa	!	!	!
.	.	.	.	.	.	.	.	4r	.	16ee\LL	.
.	.	.	.	.	.	.	.	.	.	16ff#\	.
!LO:TX:t=P:problem:kreska pseudotaktowa	!	!	!LO:TX:t=P:problem:kreska pseudotaktowa	!	!	!LO:TX:t=P:problem:kreska pseudotaktowa	!	!	!	!	!
8GG/	.	.	8GG/	.	.	8GG/	.	.	.	16dd\	.
!	!	!	!	!	!	!	!	!	!	!LO:TX:t=P:problem:kreska pseudotaktowa	!
.	.	.	.	.	.	.	.	.	.	16ee\JJ	.
=37	=37	=37	=37	=37	=37	=37	=37	=37	=37	=37	=37
4.AA/	5	.	4.AA/	5	.	4.AA/	.	2r	.	16cc#/LL	.
.	6	.	.	.	.	.	.	.	.	16b/	.
.	.	.	.	.	.	.	.	.	.	16a/	.
.	.	.	.	.	.	.	.	.	.	16g/JJ	.
.	.	.	.	.	.	.	.	.	.	16f#/LL	.
.	.	.	.	.	.	.	.	.	.	16g/	.
8AA/	.	.	8AA/	6\	.	8AA/	.	.	.	16e/	.
.	.	.	.	.	.	.	.	.	.	16f#/JJ	.
4BB/	6	.	4BB/	6	.	4BB/	.	8gg\L	.	4d/	.
.	.	.	.	.	.	.	.	8dd\J	.	.	.
!LO:TX:t=P:problem:kreska pseudotaktowa	!	!	!LO:TX:t=P:problem:kreska pseudotaktowa	!	!	!LO:TX:t=P:problem:kreska pseudotaktowa	!	!	!	!LO:TX:t=P:problem:kreska pseudotaktowa	!
4GG/	.	.	4GG/	.	.	4GG/	.	8bb\L	.	4r	.
.	.	.	.	.	.	.	.	16aa\L	.	.	.
!	!	!	!	!	!	!	!	!LO:SIC:v:t=custos aa	!	!	!
.	.	.	.	.	.	.	.	16gg\JJ	.	.	.
!	!	!	!	!	!	!	!	!LO:LB:g=original	!	!	!
=38	=38	=38	=38	=38	=38	=38	=38	=38-	=38	=38	=38
4.D/	.	.	4.D/	.	.	4D/	.	8aa\L	.	4r	.
.	.	.	.	.	.	.	.	8dd\J	.	.	.
.	.	.	.	.	.	8r	.	8dd\L	.	4f#/	.
8D/	.	.	8D/	.	.	8D/	.	16cc#\L	.	.	.
.	.	.	.	.	.	.	.	16dd\JJ	.	.	.
4.C#/	6	.	4.C#/	.	.	4.C#/	.	16ee\LL	.	4.e/	.
.	.	.	.	.	.	.	.	16dd\	.	.	.
.	.	.	.	.	.	.	.	16cc#\	.	.	.
.	.	.	.	.	.	.	.	16b\JJ	.	.	.
.	.	.	.	.	.	.	.	16a/LL	.	.	.
.	.	.	.	.	.	.	.	16g/	.	.	.
!	!	!	!	!	!	!LO:TX:t=P:problem:kreska pseudotaktowa	!	!	!	!LO:SIC:v:t=custos ff	!
8C#/	.	.	8C#/	6	.	8C#/	.	16f#/	.	8ee\	.
!	!	!	!	!	!	!	!	!LO:TX:t=P:problem:kreska pseudotaktowa	!	!	!
.	.	.	.	.	.	.	.	16e/JJ	.	.	.
!	!	!	!	!	!	!	!	!	!	!LO:LB:g=original	!
=39-	=39	=39	=39-	=39	=39	=39	=39	=39	=39	=39-	=39
2D/	.	.	2D/	.	.	16D\LL	.	4.d/	.	16ff#\LL	.
.	.	.	.	.	.	16E\	.	.	.	16gg\	.
.	.	.	.	.	.	16F#\	.	.	.	16aa\	.
.	.	.	.	.	.	16E\JJ	.	.	.	16gg\JJ	.
.	.	.	.	.	.	16D/LL	.	.	.	16ff#\LL	.
.	.	.	.	.	.	16C#/	.	.	.	16ee\	.
.	.	.	.	.	.	16BB/	.	8f#/	.	16dd\	.
.	.	.	.	.	.	16AA/JJ	.	.	.	16cc#\JJ	.
4.GG/	5	.	4.GG/	5	.	4.GG/	.	16g/LL	.	16b\LL	.
.	6	.	.	.	.	.	.	16a/	.	16cc#\	.
.	.	.	.	.	.	.	.	16b/	.	16dd\	.
.	.	.	.	.	.	.	.	16a/JJ	.	16cc#\JJ	.
.	.	.	.	.	.	.	.	16g/LL	.	16b/LL	.
.	.	.	.	.	.	.	.	16f#/	.	16a/	.
!LO:TX:t=P:problem:kreska pseudotaktowa	!	!	!LO:TX:t=P:problem:kreska pseudotaktowa	!	!	!LO:TX:t=P:problem:kreska pseudotaktowa	!	!	!	!	!
8GG/	.	.	8GG/	6	.	8GG/	.	16e/	.	16g/	.
!	!	!	!	!	!	!	!	!	!	!LO:TX:t=P:problem:kreska pseudotaktowa	!
.	.	.	.	.	.	.	.	16d/JJ	.	16f#/JJ	.
=40	=40	=40	=40	=40	=40	=40	=40	=40	=40	=40	=40
!	!	!	!	!	!	!	!	!LO:TX:t=P:problem:♯below	!	!	!
4AA/	5	.	4AA/	5	.	4AA/	.	16c#X/LL	.	16e/LL	.
.	.	.	.	.	.	.	.	16f#/	.	16a/	.
.	6	.	.	6	.	.	.	16e/	.	16g/	.
.	.	.	.	.	.	.	.	16f#/JJ	.	16a/JJ	.
4BB/	5	.	4BB/	5	.	4BB/	.	16d/LL	.	16f#/LL	.
.	.	.	.	.	.	.	.	16g/	.	16b/	.
.	6	.	.	6	.	.	.	16f#/	.	16a/	.
.	.	.	.	.	.	.	.	16g/JJ	.	16b/JJ	.
!LO:N:acc=-	!	!	!LO:N:acc=-	!	!	!LO:N:acc=-	!	!LO:TX:t=P:problem:mixed beam	!	!LO:TX:t=P:problem:mixed beam	!
4.Cn/	.	.	4.Cn/	.	.	4.Cn/	.	16e/LL	.	16g/LL	.
.	.	.	.	.	.	.	.	16ee\	.	16gg\	.
.	.	.	.	.	.	.	.	16dd\	.	16ff#\	.
.	.	.	.	.	.	.	.	16ee\JJ	.	16gg\JJ	.
!	!	!	!	!	!	!	!	!LO:N:acc=-	!	!	!
.	.	.	.	.	.	.	.	16ccn\LL	.	16ee\LL	.
.	.	.	.	.	.	.	.	16b\	.	16dd\	.
!	!	!	!	!	!	!	!	!	!	!LO:N:acc=-	!
!LO:SIC:v:t=custos D	!	!	!LO:SIC:v:t=custos D	!	!	!LO:TX:t=P:problem:kreska pseudotaktowa	!	!	!	!LO:TX:t=P:problem:♭above	!
8C/	.	.	8C/	.	.	8C/	.	16a\	.	16ccn\	.
!	!	!	!	!	!	!	!	!LO:TX:t=P:problem:kreska pseudotaktowa	!	!LO:TX:t=P:problem:kreska pseudotaktowa	!
.	.	.	.	.	.	.	.	16g\JJ	.	16b\JJ	.
!LO:LB:g=original	!	!	!LO:LB:g=original	!	!	!	!	!	!	!	!
=41	=41	=41	=41-	=41	=41	=41	=41	=41	=41	=41	=41
8D/L	.	.	8D/L	.	.	8D/L	.	8f#/L	.	8a/L	.
8BB/	6	.	8BB/	6	.	8BB/	.	8g/	.	8b/	.
!LO:N:acc=-	!	!	!LO:N:acc=-	!	!	!LO:N:acc=-	!	!	!	!	!
8Cn/	6 5	.	8Cn/	6 5	.	8Cn/	.	8.g/	.	8.a/	.
8D/J	.	.	8D/J	#	.	8D/J	.	.	.	.	.
.	.	.	.	.	.	.	.	16f#/Jk	.	16dd/Jk	.
!	!	!	!	!	!	!	!	!	!	!LO:TX:t=P:problem:mixed beam	!
4G\	.	.	4G\	.	.	4G\	.	4b/	.	8dd\L	.
.	.	.	.	.	.	.	.	.	.	8g/J	.
!LO:TX:t=P:problem:kreska pseudotaktowa	!	!	!LO:TX:t=P:problem:kreska pseudotaktowa	!	!	!LO:TX:t=P:problem:kreska pseudotaktowa	!	!	!	!	!
!LO:N:acc=-	!	!	!LO:N:acc=-	!	!	!LO:N:acc=-	!	!LO:N:acc=-	!	!	!
4Cn/	.	.	4Cn/	.	.	4Cn/	.	8ccn\L	.	8ee\L	.
.	.	.	.	.	.	.	.	16b\L	.	16dd\L	.
!	!	!	!	!	!	!	!	!	!	!LO:TX:t=P:problem:kreska pseudotaktowa	!
!	!	!	!	!	!	!	!	!	!	!LO:N:acc=-	!
!	!	!	!	!	!	!	!	!LO:TX:t=P:problem:kreska pseudotaktowa	!	!LO:TX:t=P:problem:♭above	!
.	.	.	.	.	.	.	.	16a\JJ	.	16ccn\JJ	.
=42	=42	=42	=42	=42	=42	=42	=42	=42	=42	=42	=42
!	!	!	!	!	!	!	!	!	!	!LO:TX:t=P:problem:mixed beam	!
4.GG/	.	.	4.GG/	.	.	4GG/	.	4.b/	.	8dd\L	.
.	.	.	.	.	.	.	.	.	.	8g/J	.
.	.	.	.	.	.	8r	.	.	.	8gg\L	.
8G\	.	.	8G\	.	.	8G\	.	8b/	.	16ff#\L	.
.	.	.	.	.	.	.	.	.	.	16gg\JJ	.
4.F#\	6	.	4.F#\	6	.	4.F#\	.	4a/	.	16aa\LL	.
.	.	.	.	.	.	.	.	.	.	16gg\	.
.	.	.	.	.	.	.	.	.	.	16ff#\	.
.	.	.	.	.	.	.	.	.	.	16ee\JJ	.
!	!	!	!	!	!	!	!	!LO:TX:t=P:problem:kreska pseudotaktowa	!	!	!
.	.	.	.	.	.	.	.	4r	.	16dd\LL	.
.	.	.	.	.	.	.	.	.	.	16ee\	.
!	!	!	!	!	!	!	!	!	!	!LO:TX:t=P:problem:♭above	!
!LO:TX:t=P:problem:kreska pseudotaktowa	!	!	!LO:TX:t=P:problem:kreska pseudotaktowa	!	!	!LO:TX:t=P:problem:kreska pseudotaktowa	!	!	!	!LO:N:acc=-	!
8F#\	.	.	8F#\	.	.	8F#\	.	.	.	16ccn\	.
.	.	.	.	.	.	.	.	.	.	16dd\JJ	.
!	!	!	!	!	!	!	!	!	!	!LO:LB;g=original	!
=43	=43	=43	=43	=43	=43	=43	=43	=43	=43	=43	=43
*	*	*	*	*	*	*2\right	*	*	*	*	*
2G\	.	.	2G\	.	.	2G\	.	8g/L	.	8.b\L	.
.	.	.	.	.	.	.	.	8d/J	.	.	.
!	!	!	!	!	!	!	!	!	!	!LO:SIC:v:s=16ccn\JJ	!
.	.	.	.	.	.	.	.	.	.	16cc#\Jk	.
.	.	.	.	.	.	.	.	8b/L	.	4dd\	.
.	.	.	.	.	.	.	.	16a/L	.	.	.
.	.	.	.	.	.	.	.	16g/JJ	.	.	.
!	!	!	!	!	!	!	!	!LO:LB:g=original	!	!	!
4F#\	6	.	4F#\	6	.	4.r	.	8a/L	.	4r	.
.	.	.	.	.	.	.	.	8d/J	.	.	.
!LO:TX:t=P:problem:kreska pseudotaktowa	!	!	!LO:TX:t=P:problem:kreska pseudotaktowa	!	!	!	!	!	!	!LO:TX:t=P:problem:kreska pseudotaktowa	!
4D/	.	.	4D/	.	.	.	.	8dd\L	.	4f#/	.
.	.	.	.	.	.	8D/	.	16cc#\L	.	.	.
!	!	!	!	!	!	!	!	!LO:TX:t=P:problem:kreska pseudotaktowa	!	!	!
.	.	.	.	.	.	.	.	16dd\JJ	.	.	.
!	!	!	!	!	!	!LO:LB:g=original	!	!	!	!	!
=44-	=44	=44	=44	=44	=44	=44	=44	=44	=44	=44	=44
4.C#/	6	.	4.C#/	6	.	4.C#/	.	16ee\LL	.	4.e/	.
.	.	.	.	.	.	.	.	16dd\	.	.	.
.	.	.	.	.	.	.	.	16cc#\	.	.	.
.	5	.	.	5	.	.	.	16b\JJ	.	.	.
.	.	.	.	.	.	.	.	16a/LL	.	.	.
.	.	.	.	.	.	.	.	16b/	.	.	.
8C#/	.	.	8C#/	.	.	8C#/	.	16g/	.	8e/	.
.	.	.	.	.	.	.	.	16a/JJ	.	.	.
8D/L	.	.	8D/L	.	.	8D/L	.	8f#/	.	4d/	.
8GG/J	.	.	8GG/J	.	.	8GG/J	.	4g/	.	.	.
!	!	!	!	!	!	!	!	!	!	!LO:TX:t=P:problem:kreska pseudotaktowa	!
8E\L	-	.	8E\L	-	.	8E\L	.	.	.	4r	.
16D\L	.	.	16D\L	.	.	16D\L	.	16f#/LL	.	.	.
!LO:TX:t=P:problem:kreska pseudotaktowa	!	!	!LO:TX:t=P:problem:kreska pseudotaktowa	!	!	!LO:TX:t=P:problem:kreska pseudotaktowa	!	!LO:TX:t=P:problem:kreska pseudotaktowa	!	!	!
16C#\JJ	.	.	16C#\JJ	.	.	16C#\JJ	.	16e/JJ	.	.	.
=45	=45	=45	=45	=45	=45	=45	=45	=45	=45	=45	=45
8D/L	.	.	8D/L	.	.	8D/L	.	8f#/	.	4r	.
8GG/J	.	.	8GG/J	.	.	8GG/J	.	4b/	.	.	.
8G\L	.	.	8G\L	.	.	8G\L	.	.	.	4gg\	.
16F#\L	.	.	16F#\L	.	.	16F#\L	.	8b/	.	.	.
16G\JJ	.	.	16G\JJ	.	.	16G\JJ	.	.	.	.	.
!	!	!	!	!	!	!	!	!LO:N:acc=-	!	!	!
16A\LL	6	.	16A\LL	6\ -	.	16A\LL	.	4ccn\	.	4.ff#\	.
16G\	.	.	16G\	.	.	16G\	.	.	.	.	.
16F#\	.	.	16F#\	.	.	16F#\	.	.	.	.	.
16E\JJ	.	.	16E\JJ	.	.	16E\JJ	.	.	.	.	.
!	!	!	!	!	!	!	!	!LO:TX:t=P:problem:kreska pseudotaktowa	!	!	!
8D/L	.	.	8D/L	.	.	16D/LL	.	4dd\	.	.	.
.	.	.	.	.	.	16E/	.	.	.	.	.
!LO:TX:t=P:problem:kreska pseudotaktowa	!	!	!LO:TX:t=P:problem:kreska pseudotaktowa	!	!	!	!	!	!	!	!
!LO:N:acc=-	!	!	!LO:N:acc=-	!	!	!LO:N:acc=-	!	!	!	!	!
8Cn/J	.	.	8Cn/J	.	.	16Cn/	.	.	.	8ff#\	.
!	!	!	!	!	!	!LO:TX:t=P:problem:kreska pseudotaktowa	!	!	!	!	!
.	.	.	.	.	.	16D/JJ	.	.	.	.	.
=46	=46	=46	=46	=46	=46	=46	=46	=46	=46	=46	=46
[4BB/	6	.	[4BB/	6	.	16BB/LL	.	4r	.	2gg\	.
!	!	!	!	!	!	!LO:TX:t=P:problem:♭below	!	!	!	!	!
!	!	!	!	!	!	!LO:N:acc=-	!	!	!	!	!
.	.	.	.	.	.	16Cn/	.	.	.	.	.
.	.	.	.	.	.	16D/	.	.	.	.	.
.	.	.	.	.	.	16C/JJ	.	.	.	.	.
16BB/LL]	.	.	16BB/LL]	.	.	16BB/LL	.	4dd\	.	.	.
16AA/	.	.	16AA/	.	.	16AA/	.	.	.	.	.
16GG/	.	.	16GG/	.	.	16GG/	.	.	.	.	.
!LO:SIC:v:t=custos EE	!	!	!LO:SIC:v:t=custos EE	!	!	!	!	!	!	!	!
16FF#/JJ	.	.	16FF#/JJ	.	.	16FF#/JJ	.	.	.	.	.
!LO:LB:g=original	!	!	!LO:LB:g=original	!	!	!	!	!	!	!	!
4EE/	6	.	4EE/	6\	.	4EE/	.	4.cc#\	.	8r	.
.	.	.	.	.	.	.	.	.	.	8gg\L	.
!LO:TX:t=P:problem:kreska pseudotaktowa	!	!	!LO:TX:t=P:problem:kreska pseudotaktowa	!	!	!LO:TX:t=P:problem:kreska pseudotaktowa	!	!	!	!	!
4AA/	6	.	4AA/	6\ #	.	4AA/	.	.	.	8.ff#\	.
!	!	!	!	!	!	!	!	!LO:TX:t=P:problem:kreska pseudotaktowa	!	!	!
.	5	.	.	5	.	.	.	8cc#\	.	.	.
!	!	!	!	!	!	!	!	!	!	!LO:TX:t=P:problem:kreska pseudotaktowa	!
.	.	.	.	.	.	.	.	.	.	16ee\Jk	.
=47	=47	=47	=47	=47	=47	=47	=47	=47	=47	=47	=47
2D/	.	.	2D/	#	.	16D\LL	.	4.dd\	.	16ff#\LL	.
.	.	.	.	.	.	16E\	.	.	.	16gg\	.
.	.	.	.	.	.	16F#\	.	.	.	16aa\	.
.	.	.	.	.	.	16E\JJ	.	.	.	16gg\JJ	.
.	.	.	.	.	.	16D/LL	.	.	.	16ff#\LL	.
.	.	.	.	.	.	16C#/	.	.	.	16ee\	.
.	.	.	.	.	.	16BB/	.	8ff#\	.	16dd\	.
!	!	!	!	!	!	!	!	!	!	!LO:TX:t=P:problem:♭above	!
!	!	!	!	!	!	!	!	!	!	!LO:N:acc=-	!
.	.	.	.	.	.	16AA/JJ	.	.	.	16ccn\JJ	.
4.GG/	.	.	4.GG/	.	.	4.GG/	.	16gg\LL	.	16b\LL	.
!	!	!	!	!	!	!	!	!	!	!LO:TX:t=P:problem:♭above	!
!	!	!	!	!	!	!	!	!	!	!LO:N:acc=-	!
.	.	.	.	.	.	.	.	16aa\	.	16ccn\	.
.	.	.	.	.	.	.	.	16bb\	.	16dd\	.
.	.	.	.	.	.	.	.	16aa\JJ	.	16cc\JJ	.
.	.	.	.	.	.	.	.	16gg\LL	.	16b/LL	.
.	.	.	.	.	.	.	.	16ff#\	.	16a/	.
!LO:TX:t=P:problem:kreska pseudotaktowa	!	!	!LO:TX:t=P:problem:kreska pseudotaktowa	!	!	!LO:TX:t=P:problem:kreska pseudotaktowa	!	!	!	!	!
8GG/	.	.	8GG/	6\ 5	.	8GG/	.	16ee\	.	16g/	.
!	!	!	!	!	!	!	!	!LO:TX:t=P:problem:kreska pseudotaktowa	!	!LO:TX:t=P:problem:kreska pseudotaktowa	!
.	.	.	.	.	.	.	.	16dd\JJ	.	16f#/JJ	.
=48	=48	=48	=48	=48	=48	=48	=48	=48	=48	=48	=48
8AA/L	-	.	8AA/L	-	.	8AA/L	.	8cc#\L	.	16e/LL	.
.	.	.	.	.	.	.	.	.	.	16f#/J	.
8EE/J	.	.	8EE/J	.	.	8EE/J	.	16dd\L	.	8g/J	.
.	.	.	.	.	.	.	.	16ee\JJ	.	.	.
4BB/	4	.	4BB/	4	.	8.BB/L	.	8.ee\L	.	8.f#/L	.
!	!	!	!	!	!	!	!	!LO:TX:t=P:problem:♯above	!	!	!
.	#	.	.	#	.	16BB/Jk	.	16dd#X\Jk	.	16f#/Jk	.
8E\L	.	.	8E\L	.	.	8E\L	.	8ee\L	.	8g/L	.
!	!	!	!	!	!	!	!	!LO:SIC:v:s=8ddn\J	!	!	!
16F#\L	6	.	16F#\L	6	.	16F#\L	.	8dd#\	.	8a/J	.
16G\JJ	.	.	16G\JJ	.	.	16G\JJ	.	.	.	.	.
!LO:TX:t=P:problem:mixed beam	!	!	!LO:TX:t=P:problem:mixed beam	!	!	!LO:TX:t=P:problem:mixed beam	!	!LO:SIC:v:s=8.dd\L	!	!	!
8A\L	4	.	8A\L	4	.	8A\L	.	8.dd#\	.	8.e/L	.
!LO:TX:t=P:problem:kreska pseudotaktowa	!	!	!LO:TX:t=P:problem:kreska pseudotaktowa	!	!	!LO:SIC:v:t=custos D	!	!	!	!	!
8AA/J	3	.	8AA/J	#	.	8AA/J	.	.	.	.	.
!	!	!	!	!	!	!	!	!LO:TX:t=P:problem:kreska pseudotaktowa	!	!LO:TX:t=P:problem:kreska pseudotaktowa	!
.	.	.	.	.	.	.	.	16cc#\Jk	.	16e/Jk	.
!	!	!	!	!	!	!LO:LB:g=original	!	!LO:LB:g=original	!	!	!
=49	=49	=49	=49	=49	=49	=49-	=49	=49	=49	=49	=49
!	!	!	!	!	!	!	!	!	!	!LO:TX:t=P:problem:mixed beam	!
8D\L	.	.	8D\L	.	.	8D\L	.	8dd\L	.	8f#/L	.
8G\	.	.	8G\	.	.	8G\	.	8b\	.	8dd\J	.
!	!	!	!	!	!	!	!	!	!	!LO:N:acc=-	!
!	!	!	!	!	!	!	!	!	!	!LO:TX:t=P:problem:♭above	!
8.G\	-4 2	.	8.G\	4 2	.	8.G\	.	8.a\	.	8.ccn\L	.
16F#\Jk	6	.	16F#\Jk	6	.	16F#\Jk	.	16a\Jk	.	16dd\Jk	.
!LO:TX:t=P:problem:mixed beam	!	!	!LO:TX:t=P:problem:mixed beam	!	!	!	!	!	!	!	!
8G\L	6	.	8G\L	6	.	8G\L	.	8g/L	.	8b/L	.
16BB/L	.	.	16BB/L	.	.	16BB\L	.	8g/	.	8b/	.
!LO:SIC:v:s=16Cn\JJ	!	!	!LO:SIC:v:s=16Cn\JJ	!	!	!LO:SIC:v:s=16Cn\JJ	!	!	!	!	!
16C#/JJ	.	.	16C#/JJ	.	.	16C#\JJ	.	.	.	.	.
!LO:TX:t=P:problem:mixed beam	!	!	!LO:TX:t=P:problem:mixed beam	!	!	!LO:TX:t=P:problem:mixed beam	!	!	!	!	!
8D\L	4	.	8D\L	4	.	8D\L	.	8.g/	.	8.a/	.
!LO:TX:t=P:problem:kreska pseudotaktowa	!	!	!LO:TX:t=P:problem:kreska pseudotaktowa	!	!	!LO:TX:t=P:problem:kreska pseudotaktowa	!	!	!	!	!
8DD/J	3	.	8DD/J	#	.	8DD/J	.	.	.	.	.
!	!	!	!	!	!	!	!	!LO:TX:t=P:problem:kreska pseudotaktowa	!	!	!
.	.	.	.	.	.	.	.	16f#/Jk	.	16a/Jk	.
!LO:PB:g=original	!	!	!	!	!	!	!	!	!	!	!
=50	=50	=50	=50	=50	=50	=50	=50	=50	=50	=50	=50
8GG/L	.	.	8GG/L	.	.	8GG/L	.	4g/	.	4b/	.
8DD/J	.	.	8DD/J	.	.	8DD/J	.	.	.	.	.
8BB/L	6	.	8BB/L	6	.	8BB/L	.	4r	.	4r	.
16AA/L	.	.	16AA/L	.	.	16AA/L	.	.	.	.	.
16GG/JJ	.	.	16GG/JJ	.	.	16GG/JJ	.	.	.	.	.
!	!	!	!	!	!	!	!	!LO:SIC:v:t=custos a	!	!	!
8AA/L	.	.	8AA/L	.	.	8AA/L	.	2r	.	2r	.
8DD/J	.	.	8DD/J	.	.	8DD/J	.	.	.	.	.
8D\L	.	.	8D\L	.	.	8D/L	.	.	.	.	.
16C#\L	.	.	16C#\L	.	.	16C#/L	.	.	.	.	.
!LO:TX:t=P:problem:kreska pseudotaktowa	!	!	!LO:TX:t=P:problem:kreska pseudotaktowa	!	!	!LO:TX:t=P:problem:kreska pseudotaktowa	!	!	!	!	!
16D\JJ	.	.	16D\JJ	.	.	16D/JJ	.	.	.	.	.
!	!	!	!	!	!	!	!	!LO:PB:g=original	!	!	!
=51	=51	=51	=51	=51	=51	=51	=51	=51-	=51	=51-	=51
!	!	!	!	!	!	!	!	!	!	!LO:TX:a:t=2.	!
16E/LL	.	.	16E/LL	.	.	16E/LL	.	2r	.	0r	.
16D/	.	.	16D/	.	.	16D/	.	.	.	.	.
16C#/	.	.	16C#/	.	.	16C#/	.	.	.	.	.
16BB/JJ	.	.	16BB/JJ	.	.	16BB/JJ	.	.	.	.	.
8AA/L	.	.	8AA/L	.	.	16AA/LL	.	.	.	.	.
.	.	.	.	.	.	16BB/	.	.	.	.	.
!LO:SIC:v:t=custos FF	!	!	!LO:SIC:v:t=custos FF	!	!	!	!	!	!	!	!
8GG/J	.	.	8GG/J	.	.	16GG/	.	.	.	.	.
.	.	.	.	.	.	16AA/JJ	.	.	.	.	.
!LO:PB:g=original	!	!	!LO:PB:g=original	!	!	!	!	!	!	!	!
4FF#/	6	.	4FF#/	6	.	4FF#/	.	8a/L	.	.	.
.	.	.	.	.	.	.	.	8d/J	.	.	.
!	!	!	!	!	!	!LO:TX:t=P:problem:kreska pseudotaktowa	!	!	!	!	!
4GG/	.	.	4GG/	.	.	4GG/	.	8b/L	.	.	.
.	.	.	.	.	.	.	.	16a/L	.	.	.
!	!	!	!	!	!	!	!	!LO:TX:t=P:problem:kreska pseudotaktowa	!	!	!
.	.	.	.	.	.	.	.	16g/JJ	.	.	.
=52	=52	=52	=52	=52	=52	=52	=52	=52	=52	=52-	=52
4.FF#/	.	.	4.FF#/	.	.	4.FF#/	.	8a/L	.	.	.
.	6	.	.	6	.	.	.	8d/J	.	.	.
.	.	.	.	.	.	.	.	8dd\L	.	.	.
8FF#/	.	.	8FF#/	.	.	8FF#/	.	16cc#\L	.	.	.
.	.	.	.	.	.	.	.	16dd\JJ	.	.	.
4.C#X/	6	.	4.C#X/	6	.	4.C#/	.	16ee\LL	.	.	.
.	.	.	.	.	.	.	.	16dd\	.	.	.
.	.	.	.	.	.	.	.	16cc#\	.	.	.
.	.	.	.	.	.	.	.	16b\JJ	.	.	.
.	.	.	.	.	.	.	.	16a/LL	.	.	.
.	.	.	.	.	.	.	.	16b/	.	.	.
!LO:TX:t=P:problem:kreska pseudotaktowa	!	!	!LO:TX:t=P:problem:kreska pseudotaktowa	!	!	!LO:TX:t=P:problem:kreska pseudotaktowa	!	!	!	!	!
8C#/	.	.	8C#/	.	.	8C#/	.	16g/	.	.	.
!	!	!	!	!	!	!	!	!LO:TX:t=P:problem:kreska pseudotaktowa	!	!	!
.	.	.	.	.	.	.	.	16a/JJ	.	.	.
!	!	!	!	!	!	!	!	!	!	!LO:PB:g=original	!
=53	=53	=53	=53	=53	=53	=53	=53	=53	=53	=53-	=53
4.D/	.	.	4.D/	.	.	4.D/	.	16f#/LL	.	2r	.
.	.	.	.	.	.	.	.	16g/	.	.	.
.	.	.	.	.	.	.	.	16a/	.	.	.
.	.	.	.	.	.	.	.	16g/JJ	.	.	.
.	.	.	.	.	.	.	.	16f#/LL	.	.	.
.	.	.	.	.	.	.	.	16g/	.	.	.
!LO:TX:t=P:problem:♭above	!	!	!LO:TX:t=P:problem:♭above	!	!	!	!	!	!	!	!
!LO:N:acc=-	!	!	!LO:N:acc=-	!	!	!LO:N:acc=-	!	!	!	!	!
8Cn/	.	.	8Cn/	.	.	8Cn/	.	16e/	.	.	.
.	.	.	.	.	.	.	.	16f#/JJ	.	.	.
!	!	!	!	!	!	!	!	!LO:TX:t=P:problem:kreska pseudotaktowa	!	!LO:TX:t=P:problem:mixed beam	!
4BB/	6	.	4BB/	6	.	4BB/	.	2g/	.	8dd\L	.
.	.	.	.	.	.	.	.	.	.	8g/J	.
!LO:TX:t=P:problem:kreska pseudotaktowa	!	!	!LO:TX:t=P:problem:kreska pseudotaktowa	!	!	!	!	!	!	!	!
!LO:N:acc=-	!	!	!LO:N:acc=-	!	!	!LO:TX:t=P:problem:kreska pseudotaktowa	!	!	!	!	!
4Cn/	.	.	4Cn/	.	.	4C/	.	.	.	8ee\L	.
.	.	.	.	.	.	.	.	.	.	16dd\L	.
!	!	!	!	!	!	!	!	!	!	!LO:TX:t=P:problem:kreska pseudotaktowa	!
!	!	!	!	!	!	!	!	!	!	!LO:TX:t=P:problem:♭above	!
!	!	!	!	!	!	!	!	!	!	!LO:N:acc=-	!
.	.	.	.	.	.	.	.	.	.	16ccn\JJ	.
=54	=54	=54	=54	=54	=54	=54	=54	=54	=54	=54	=54
!	!	!	!	!	!	!	!	!	!	!LO:TX:t=P:problem:mixed beam	!
4.BB/	6	.	4.BB/	6	.	4BB/	.	4r	.	8dd\L	.
.	.	.	.	.	.	.	.	.	.	8g/J	.
.	.	.	.	.	.	8r	.	8r	.	8gg\L	.
8G\	.	.	8G\	.	.	8G\	.	8b/	.	16ff#\L	.
.	.	.	.	.	.	.	.	.	.	16gg\JJ	.
4.F#\	6	.	4.F#\	6	.	4.F#\	.	4.a/	.	16aa\LL	.
.	.	.	.	.	.	.	.	.	.	16gg\	.
.	.	.	.	.	.	.	.	.	.	16ff#\	.
.	.	.	.	.	.	.	.	.	.	16ee\JJ	.
.	.	.	.	.	.	.	.	.	.	16dd\LL	.
.	.	.	.	.	.	.	.	.	.	16ee\	.
!	!	!	!	!	!	!	!	!	!	!LO:N:acc=-	!
!	!	!	!	!	!	!	!	!LO:TX:t=P:problem:kreska pseudotaktowa	!	!LO:TX:t=P:problem:♭above	!
8F#\	.	.	8F#\	.	.	8F#\	.	8a/	.	16ccn\	.
!	!	!	!	!	!	!	!	!	!	!LO:TX:t=P:problem:kreska pseudotaktowa	!
.	.	.	.	.	.	.	.	.	.	16dd\JJ	.
=55-	=55	=55	=55-	=55	=55	=55	=55	=55	=55	=55	=55
4G\	.	.	4G\	.	.	4G\	.	4g/	.	4b/	.
8.BB/L	6	.	8.BB/L	6	.	8.BB/L	.	4g/	.	8r	.
.	.	.	.	.	.	.	.	.	.	8b/	.
!LO:SIC:v:s=16Cn/JJ	!	!	!LO:SIC:v:s=16Cn/JJ	!	!	!LO:SIC:v:s=16Cn/JJ	!	!	!	!	!
16C#/Jk	.	.	16C#/Jk	.	.	16C#/Jk	.	.	.	.	.
4D/	4	.	4D/	4	.	2D/	.	4.g/	.	4.a/	.
.	3	.	.	.	.	.	.	.	.	.	.
4DD/	.	.	4DD/	#	.	.	.	.	.	.	.
.	.	.	.	.	.	.	.	8f#/	.	8a/	.
=56-	=56	=56	=56-	=56	=56	=56	=56	=56	=56	=56-	=56
!	!	!	!	!	!	!	!	!LO:SIC:v:t=custos g	!	!	!
1GG/;	.	.	1GG/;	.	.	1GG/;	.	1g/	.	1b\;	.
!	!	!	!	!	!	!LO:PB:g=original	!	!LO:LB:g=original	!	!	!
=57||	=57||	=57||	=57||	=57||	=57||	=57||	=57||	=57||	=57||	=57||	=57||
*M3/2	*	*	*M3/2	*	*	*M3/2	*	*M3/2	*	*M3/2	*
!	!	!	!	!	!	!LO:TX:rj:a:t=adagio	!	!LO:TX:rj:b:t=adagio	!	!LO:TX:b:t=Adagio	!
2E\	.	.	2E\	-	.	2E\	.	2g/	.	2b/	.
1D#X\	6	.	1D#X\	6	.	2.D#X/	.	2.f#/	.	2.b/	.
.	.	.	.	.	.	4D#/	.	4f#/	.	4b/	.
=58-	=58	=58	=58-	=58	=58	=58-	=58	=58-	=58	=58-	=58
1E\	.	.	1E\	-	.	1E\	.	1g/	.	1b\	.
!LO:TX:t=P:problem:kreska pseudotaktowa	!	!	!LO:TX:t=P:problem:kreska pseudotaktowa	!	!	!LO:TX:t=P:problem:kreska pseudotaktowa	!	!LO:TX:t=P:problem:kreska pseudotaktowa	!	!LO:SIC:v:t=custos b	!
2r	.	.	2r	.	.	2r	.	2r	.	2r	.
!	!	!	!	!	!	!	!	!	!	!LO:LB:g=original	!
=59	=59	=59	=59	=59	=59	=59	=59	=59	=59	=59-	=59
2E\	.	.	2E\	-	.	2E\	.	2g/	.	2b/	.
!LO:SIC:v:t=custos BB	!	!	!LO:SIC:v:t=custos BB	!	!	!	!	!	!	!	!
!LO:N:acc=-	!	!	!LO:N:acc=-	!	!	!LO:N:acc=-	!	!	!	!	!
1Cn/	6	.	1Cn/	6	.	2.Cn/	.	2.a/	.	2.ee\	.
.	.	.	.	.	.	4C/	.	4a/	.	4ff#\	.
!LO:LB:g=original	!	!	!LO:LB:g=original	!	!	!	!	!	!	!	!
=60-	=60	=60	=60-	=60	=60	=60-	=60	=60-	=60	=60	=60
1BB/	#	.	1BB/	#	.	1BB/	.	1b\	.	1dd#X\	.
!LO:TX:t=P:problem:kreska pseudotaktowa	!	!	!LO:TX:t=P:problem:kreska pseudotaktowa	!	!	!LO:TX:t=P:problem:kreska pseudotaktowa	!	!LO:TX:t=P:problem:kreska pseudotaktowa	!	!LO:TX:t=P:problem:kreska pseudotaktowa	!
2r	.	.	2r	.	.	2r	.	2r	.	2r	.
=61-	=61	=61	=61-	=61	=61	=61	=61	=61	=61	=61	=61
!	!	!	!	!	!	!	!	!	!	!LO:N:acc=-	!
2GG/	.	.	2GG/	.	.	2GG/	.	2b/	.	2ddn\	.
1FF#/	6	.	1FF#/	6	.	2.FF#/	.	2.a/	.	2.dd\	.
.	.	.	.	.	.	4FF#/	.	4a/	.	4dd\	.
=62	=62	=62	=62	=62	=62	=62-	=62	=62-	=62	=62-	=62
1GG/	.	.	1GG/	.	.	1GG/	.	1b\	.	1dd\	.
!LO:TX:t=P:problem:kreska pseudotaktowa	!	!	!LO:TX:t=P:problem:kreska pseudotaktowa	!	!	!LO:TX:t=P:problem:kreska pseudotaktowa	!	!LO:TX:t=P:problem:kreska pseudotaktowa	!	!LO:TX:t=P:problem:kreska pseudotaktowa	!
2r	.	.	2r	.	.	2r	.	2r	.	2r	.
=63	=63	=63	=63	=63	=63	=63	=63	=63	=63	=63	=63
2G\	.	.	2G\	.	.	2GG/	.	2b/	.	2dd\	.
1E\	6	.	1E\	6\ -	.	2.EE/	.	2.cc#\	.	2.gg\	.
.	.	.	.	.	.	4EE/	.	4cc#\	.	4gg\	.
=64-	=64	=64	=64-	=64	=64	=64-	=64	=64-	=64	=64-	=64
1.D\	.	.	1.D\	.	.	2DD/	.	2dd\	.	2ff#\	.
!	!	!	!	!	!	!LO:TX:t=P:problem:kreska pseudotaktowa	!	!LO:TX:t=P:problem:kreska pseudotaktowa	!	!LO:TX:t=P:problem:kreska pseudotaktowa	!
.	.	.	.	.	.	1D\	.	1dd\	.	1ff#\	.
=65-	=65	=65	=65-	=65	=65	=65	=65	=65	=65	=65	=65
1E\	7	.	1E\	- 7 -	.	1E\	.	1dd\	.	1gg\	.
.	-6	.	.	6	.	.	.	.	.	.	.
!	!	!	!	!	!	!	!	!LO:N:acc=-	!	!	!
2F#\	6 -5	.	2F#\	.	.	2F#\	.	[2ccn\	.	2aa\	.
=66-	=66	=66	=66-	=66	=66	=66	=66	=66-	=66	=66-	=66
!LO:TX:t=P:problem:kreska pseudotaktowa	!	!	!LO:TX:t=P:problem:kreska pseudotaktowa	!	!	!	!	!	!	!	!
1.G\	-7	.	1.G\	6 -5	.	1.G\	.	1cc\]	.	1.dd\	.
.	-3	.	.	.	.	.	.	[2b-X/	.	.	.
=67	=67	=67	=67-	=67	=67	=67-	=67	=67-	=67	=67-	=67
!	!	!	!	!	!	!	!	!	!	!LO:N:acc=-	!
1.E\	6 5	.	1.E\	6 5	.	1.E\	.	1b-\]	.	1.ccn\	.
!	!	!	!	!	!	!	!	!LO:TX:t=P:problem:kreska pseudotaktowa	!	!	!
.	-4	.	.	-4	.	.	.	2a-X/	.	.	.
.	-	.	.	-	.	.	.	.	.	.	.
!	!	!	!	!	!	!LO:LB:g=original	!	!	!	!	!
=68-	=68	=68	=68-	=68	=68	=68-	=68	=68	=68	=68-	=68
!LO:N:acc=-	!	!	!LO:N:acc=-	!	!	!LO:N:acc=-	!	!LO:SIC:v:s=1a-	!	!	!
1Fn\	-	.	1Fn\	-	.	1Fn\	.	1a/	.	1ccny\	.
!	!	!	!	!	!	!	!	!LO:SIC:v:t=custos f	!	!	!
!LO:TX:t=P:problem:kreska pseudotaktowa	!	!	!LO:TX:t=P:problem:kreska pseudotaktowa	!	!	!	!	!LO:N:acc=-	!	!LO:SIC:v:t=custos a	!
2F\	.	.	2F\	-	.	2F\	.	2fn/	.	2a-X/	.
!	!	!	!	!	!	!	!	!LO:LB:g=original	!	!LO:LB:g=original	!
=69	=69	=69	=69	=69	=69	=69-	=69	=69-	=69	=69-	=69
!	!	!	!	!	!	!	!	!LO:N:acc=-	!	!	!
1BBn/	-7 5	.	1BBn/	-7 5	.	1BBn/	.	1fn/	.	1a-X/	.
!	!	!	!	!	!	!LO:TX:t=P:problem:kreska pseudotaktowa	!	!	!	!LO:TX:t=P:problem:kreska pseudotaktowa	!
2BB/	.	.	2BB/	6	.	2BB/	.	2f/	.	2g/	.
=70-	=70	=70	=70-	=70	=70	=70	=70	=70-	=70	=70	=70
!LO:N:acc=-	!	!	!LO:N:acc=-	!	!	!LO:N:acc=-	!	!LO:SIC:v:s=1e-	!	!	!
1Cn/	#	.	1Cn/	#	.	1Cn/	.	1e/	.	1g/	.
!	!	!	!	!	!	!	!	!LO:TX:t=P:problem:kreska pseudotaktowa	!	!	!
!	!	!	!	!	!	!	!	!LO:TX:t=P:problem:♭above	!	!	!
!LO:TX:t=P:problem:kreska pseudotaktowa	!	!	!LO:TX:t=P:problem:kreska pseudotaktowa	!	!	!	!	!LO:N:acc=-	!	!	!
2C/	-	.	2C/	-	.	2C/	.	2cn/	.	2e-X/	.
=71	=71	=71	=71	=71	=71	=71-	=71	=71	=71	=71-	=71
!	!	!	!	!	!	!	!	!LO:SIC:v:s=[1.cn	!	!	!
1.FF#X/	-7 -5	.	1.FF#X/	-7 -5	.	1.FF#X/	.	[1.c#/	.	1e-X/	.
.	6	.	.	6	.	.	.	.	.	2d/	.
=72-	=72	=72	=72-	=72	=72	=72-	=72	=72-	=72	=72-	=72
!	!	!	!	!	!	!	!	!LO:SIC:v:s=2c/]	!	!	!
1GG/	5 4	.	1GG/	5 4	.	1GG/	.	2c#/]	.	1.d/	.
!	!	!	!	!	!	!	!	!LO:TX:t=P:problem:kreska pseudotaktowa	!	!	!
.	.	.	.	#	.	.	.	1B/	.	.	.
2G\	3	.	2G\	.	.	2G\	.	.	.	.	.
!	!	!	!LO:LB:g=original	!	!	!	!	!	!	!	!
=73-	=73	=73	=73-	=73	=73	=73-	=73	=73	=73	=73-	=73
1G\	6 #4 2	.	1G\	6\ #4 2	.	1G\	.	1c#X/	.	1e/	.
!	!	!	!	!	!	!LO:TX:t=P:problem:kreska pseudotaktowa	!	!	!	!LO:TX:t=P:problem:kreska pseudotaktowa	!
2F#\	6	.	2F#\	6	.	2F#X\	.	2d/	.	2f#X/	.
=74-	=74	=74	=74-	=74	=74	=74	=74	=74-	=74	=74	=74
!LO:TX:t=P:problem:kreska pseudotaktowa	!	!	!LO:TX:t=P:problem:kreska pseudotaktowa	!	!	!	!	!	!	!	!
1.E\	7	.	1.E\	7 -	.	1.E\	.	1d/	.	1.g/	.
!	!	!	!	!	!	!	!	!LO:TX:t=P:problem:kreska pseudotaktowa	!	!	!
.	6	.	.	6\	.	.	.	2c#X/	.	.	.
!LO:LB:g=original	!	!	!	!	!	!	!	!	!	!	!
=75	=75	=75	=75	=75	=75	=75-	=75	=75	=75	=75-	=75
2D/	.	.	2D/	.	.	2D/	.	2d/	.	2f#/	.
2r	.	.	2r	.	.	2r	.	2r	.	2r	.
!LO:TX:t=P:problem:kreska pseudotaktowa	!	!	!LO:TX:t=P:problem:kreska pseudotaktowa	!	!	!LO:TX:t=P:problem:kreska pseudotaktowa	!	!LO:TX:t=P:problem:kreska pseudotaktowa	!	!LO:TX:t=P:problem:kreska pseudotaktowa	!
2D/	.	.	2D/	.	.	2D/	.	2f#/	.	2a/	.
=76	=76	=76	=76	=76	=76	=76	=76	=76	=76	=76	=76
2GG/	.	.	2GG/	.	.	2GG/	.	2g/	.	2b/	.
2r	.	.	2r	.	.	2r	.	2r	.	2r	.
!LO:TX:t=P:problem:kreska pseudotaktowa	!	!	!LO:TX:t=P:problem:kreska pseudotaktowa	!	!	!	!	!LO:TX:t=P:problem:kreska pseudotaktowa	!	!	!
2GG/	.	.	2GG/	.	.	2GG/	.	2b/	.	2dd\	.
=77	=77	=77	=77	=77	=77	=77-	=77	=77	=77	=77-	=77
!LO:N:acc=-	!	!	!LO:N:acc=-	!	!	!LO:N:acc=-	!	!LO:N:acc=-	!	!	!
2Cn/	.	.	2Cn/	.	.	2Cn/	.	2ccn\	.	2ee\	.
2r	.	.	2r	.	.	2r	.	2r	.	2r	.
!	!	!	!	!	!	!	!	!LO:TX:t=P:problem:kreska pseudotaktowa	!	!	!
!	!	!	!	!	!	!LO:TX:t=P:problem:kreska pseudotaktowa	!	!LO:N:acc=-	!	!LO:TX:t=P:problem:kreska pseudotaktowa	!
2C/	.	.	2C/	.	.	2C/	.	2ccn\	.	2ee\	.
=78-	=78	=78	=78-	=78	=78	=78	=78	=78	=78	=78	=78
!	!	!	!	!	!	!	!	!LO:SIC:v:s=1ccn	!	!	!
1D\	7 3	.	1D\	7 #	.	1D\	.	1cc#\	.	1ff#\	.
!LO:TX:t=P:problem:kreska pseudotaktowa	!	!	!LO:TX:t=P:problem:kreska pseudotaktowa	!	!	!LO:SIC:v:t=custos C	!	!	!	!	!
2E\	.	.	2E\	-	.	2E\	.	2b/	.	2gg\	.
!	!	!	!	!	!	!LO:LB:g=original	!	!	!	!	!
=79	=79	=79	=79	=79	=79	=79-	=79	=79-	=79	=79-	=79
!LO:N:acc=-	!	!	!LO:N:acc=-	!	!	!LO:N:acc=-	!	!	!	!	!
1Cn/	6 5	.	1Cn/	6 5	.	1Cn/	.	1a/	.	1gg\	.
!	!	!	!	!	!	!	!	!	!	!LO:SIC:v:t=custos gg	!
2D/	.	.	2D/	#	.	2D/	.	2a/	.	2ff#\	.
!	!	!	!	!	!	!	!	!	!	!LO:LB:g=original	!
=80-	=80	=80	=80-	=80	=80	=80-	=80	=80-	=80	=80-	=80
*M6/4	*	*	*M6/4	*	*	*M6/4	*	*M6/4	*	*M6/4	*
2.GG/	.	.	2.GG/	.	.	2.GG/	.	2.b/	.	4gg\	.
.	.	.	.	.	.	.	.	.	.	4.gg\	.
.	.	.	.	.	.	.	.	.	.	8ee\	.
!LO:TX:t=P:problem:kreska pseudotaktowa	!	!	!LO:TX:t=P:problem:kreska pseudotaktowa	!	!	!LO:TX:t=P:problem:kreska pseudotaktowa	!	!	!	!	!
2.D/	.	.	2.D/	.	.	2.D/	.	4r	.	2.ff#\	.
.	.	.	.	.	.	.	.	4.dd\	.	.	.
!	!	!	!	!	!	!	!	!LO:SIC:v:t=custos cc	!	!	!
.	.	.	.	.	.	.	.	8b/	.	.	.
!	!	!	!	!	!	!	!	!LO:LB:g=original	!	!	!
=81	=81	=81	=81	=81	=81	=81	=81	=81-	=81	=81-	=81
4A\	.	.	4A\	.	.	4A\	.	4cc#\	.	4ee\	.
4.A\	.	.	4.A\	.	.	4.A\	.	4.cc#\	.	4.aa\	.
8F#\	6	.	8F#\	6	.	8F#\	.	8a/	.	8aa\	.
4.G\	7 3	.	4.G\	# 7 3	.	4.G\	.	4.b\	.	4aa\	.
.	.	.	.	.	.	.	.	.	.	4gg\	.
8A\	.	.	8A\	.	.	8A\	.	8cc#\	.	.	.
!	!	!	!	!	!	!LO:TX:t=P:problem:kreska pseudotaktowa	!	!LO:TX:t=P:problem:kreska pseudotaktowa	!	!	!
4B\	.	.	4B\	.	.	4B\	.	4dd\	.	4ff#\	.
!	!	!	!LO:LB:g=original	!	!	!	!	!	!	!	!
=82-	=82	=82	=82-	=82	=82	=82	=82	=82	=82	=82	=82
4G\	6 5	.	4G\	6 5	.	4G\	.	4dd\	.	2ee\	.
4A\	4	.	4A\	4	.	4A\	.	4.dd\	.	.	.
.	3	.	.	#	.	.	.	.	.	.	.
4AA/	.	.	4AA/	.	.	4AA/	.	.	.	4ee\	.
.	.	.	.	.	.	.	.	8cc#\	.	.	.
4DD/	.	.	4DD/	.	.	4DD/	.	2dd\	.	2ff#\	.
4.D/	.	.	4.D/	.	.	4.D/	.	.	.	.	.
!	!	!	!	!	!	!	!	!LO:TX:t=P:problem:kreska pseudotaktowa	!	!LO:TX:t=P:problem:kreska pseudotaktowa	!
.	.	.	.	.	.	.	.	4r	.	4r	.
!LO:TX:t=P:problem:kreska pseudotaktowa	!	!	!LO:TX:t=P:problem:kreska pseudotaktowa	!	!	!LO:TX:t=P:problem:kreska pseudotaktowa	!	!	!	!	!
8BB/	6	.	8BB/	6	.	8BB/	.	.	.	.	.
!LO:LB:g=original	!	!	!	!	!	!	!	!	!	!	!
=83	=83	=83	=83	=83	=83	=83	=83	=83	=83	=83	=83
2.C#/	6	.	2.C#/	6	.	2.C#/	.	4r	.	2.r	.
.	.	.	.	.	.	.	.	4.a/	.	.	.
.	.	.	.	.	.	.	.	8f#/	.	.	.
!LO:TX:t=P:problem:kreska pseudotaktowa	!	!	!LO:TX:t=P:problem:kreska pseudotaktowa	!	!	!	!	!LO:TX:t=P:problem:kreska pseudotaktowa	!	!	!
2.BB/	6\	.	2.BB/	6\	.	2.BB/	.	2.g#X/	.	4r	.
.	.	.	.	.	.	.	.	.	.	4.dd\	.
!	!	!	!	!	!	!	!	!	!	!LO:TX:t=P:problem:kreska pseudotaktowa	!
.	.	.	.	.	.	.	.	.	.	8b/	.
=84	=84	=84	=84	=84	=84	=84-	=84	=84	=84	=84	=84
2.AA/	.	.	2.AA/	.	.	2.AA/	.	4a/	.	4cc#\	.
.	.	.	.	.	.	.	.	4.g/	.	4.b/	.
.	.	.	.	.	.	.	.	8a/	.	8cc#\	.
2.D/	.	.	2.D/	.	.	2.D/	.	4f#/	.	4a/	.
.	.	.	.	.	.	.	.	4.e/	.	4.g/	.
!	!	!	!	!	!	!	!	!LO:TX:t=P:problem:kreska pseudotaktowa	!	!LO:TX:t=P:problem:kreska pseudotaktowa	!
.	.	.	.	.	.	.	.	8f#/	.	8a/	.
=85-	=85	=85	=85-	=85	=85	=85	=85	=85	=85	=85	=85
2.BB/	.	.	2.BB/	.	.	2.BB/	.	4b/	.	4dd\	.
.	.	.	.	.	.	.	.	4.a/	.	4.cc#\	.
!	!	!	!	!	!	!	!	!	!	!LO:SIC:v:t=custos b	!
.	.	.	.	.	.	.	.	8b/	.	8dd\	.
!	!	!	!	!	!	!	!	!	!	!LO:LB:g=original	!
!LO:TX:t=P:problem:kreska pseudotaktowa	!	!	!LO:TX:t=P:problem:kreska pseudotaktowa	!	!	!LO:TX:t=P:problem:kreska pseudotaktowa	!	!	!	!	!
2.E\	#	.	2.E\	#	.	2.E\	.	4g#X/	.	4b/	.
.	.	.	.	.	.	.	.	4.f#/	.	4.a/	.
!	!	!	!	!	!	!	!	!LO:TX:t=P:problem:kreska pseudotaktowa	!	!LO:TX:t=P:problem:kreska pseudotaktowa	!
.	.	.	.	.	.	.	.	8g#/	.	8b/	.
=86	=86	=86	=86	=86	=86	=86	=86	=86	=86	=86	=86
4C#/	6	.	4C#/	6	.	4C#/	.	4cc#\	.	4ee\	.
2D/	6	.	2D/	6	.	2D/	.	4.b/	.	4.dd\	.
.	5	.	.	5	.	.	.	8a/	.	8cc#\	.
4E\	4	.	4E\	4	.	4E\	.	2a/	.	2b/	.
!LO:TX:t=P:problem:kreska pseudotaktowa	!	!	!LO:TX:t=P:problem:kreska pseudotaktowa	!	!	!	!	!	!	!	!
2EE/	#	.	2EE/	#	.	2EE/	.	.	.	.	.
!	!	!	!	!	!	!	!	!LO:SIC:v:t=custos aa	!	!LO:TX:t=P:problem:kreska pseudotaktowa	!
.	.	.	.	.	.	.	.	4g#X/	.	4b/	.
!	!	!	!	!	!	!LO:LB:g=original	!	!LO:LB:g=original	!	!	!
=87	=87	=87	=87	=87	=87	=87-	=87	=87-	=87	=87	=87
4AA/	.	.	4AA/	.	.	4AA/	.	2a/	.	2cc#\	.
4.A\	.	.	4.A\	.	.	4.A\	.	.	.	.	.
.	.	.	.	.	.	.	.	4r	.	4r	.
8F#\	6	.	8F#\	6	.	8F#\	.	.	.	.	.
!LO:TX:t=P:problem:kreska pseudotaktowa	!	!	!LO:TX:t=P:problem:kreska pseudotaktowa	!	!	!LO:TX:t=P:problem:kreska pseudotaktowa	!	!	!	!LO:TX:t=P:problem:kreska pseudotaktowa	!
2.G\	6	.	2.G\	6	.	2.G\	.	4r	.	2.r	.
.	.	.	.	.	.	.	.	4.ee\	.	.	.
!	!	!	!	!	!	!	!	!LO:TX:t=P:problem:kreska pseudotaktowa	!	!	!
.	.	.	.	.	.	.	.	8cc#\	.	.	.
=88	=88	=88	=88	=88	=88	=88	=88	=88	=88	=88	=88
2.F#\	6	.	2.F#\	6	.	2.F#\	.	2.dd\	.	4r	.
.	.	.	.	.	.	.	.	.	.	4.aa\	.
.	.	.	.	.	.	.	.	.	.	8ff#\	.
!LO:SIC:v:t=custos E	!	!	!LO:SIC:v:t=custos E	!	!	!LO:TX:t=P:problem:kreska pseudotaktowa	!	!	!	!	!
2.E\	7	.	2.E\	7	.	2.E\	.	4r	.	2.gg\	.
.	.	.	.	.	.	.	.	4.dd\	.	.	.
!	!	!	!	!	!	!	!	!LO:TX:t=P:problem:kreska pseudotaktowa	!	!	!
.	.	.	.	.	.	.	.	8b\	.	.	.
!	!	!	!LO:LB:g=original	!	!	!	!	!	!	!	!
=89-	=89	=89	=89-	=89	=89	=89	=89	=89	=89	=89	=89
2.E\	-6	.	2.E\	-6	.	2.E\	.	[2.cc#\	.	4r	.
.	.	.	.	.	.	.	.	.	.	4.gg\	.
.	.	.	.	.	.	.	.	.	.	8ee\	.
2D/	7 3	.	2D/	7 #	.	2D/	.	2cc#\]	.	2ff#\	.
!LO:TX:t=P:problem:kreska pseudotaktowa	!	!	!LO:TX:t=P:problem:kreska pseudotaktowa	!	!	!LO:TX:t=P:problem:kreska pseudotaktowa	!	!LO:TX:t=P:problem:kreska pseudotaktowa	!	!LO:TX:t=P:problem:kreska pseudotaktowa	!
4E\	.	.	4E\	.	.	4E\	.	4b/	.	4gg\	.
=90	=90	=90	=90	=90	=90	=90	=90	=90	=90	=90	=90
!LO:N:acc=-	!	!	!LO:N:acc=-	!	!	!LO:N:acc=-	!	!	!	!	!
4Cn/	.	.	4Cn/	.	.	4Cn/	.	2a/	.	2gg\	.
4D/	4	.	4D/	4	.	4D/	.	.	.	.	.
.	3	.	.	#	.	.	.	.	.	.	.
4DD/	.	.	4DD/	.	.	4DD/	.	4a/	.	4ff#\	.
4GG/	.	.	4GG/	.	.	4GG/	.	2b/	.	2gg\	.
!	!	!LO:DY:t=piano	!	!	!LO:DY:t=piano	!	!LO:DY:t=piano	!	!	!	!
4.G\	.	p	4.G\	.	p	4.G\	p	.	.	.	.
!	!	!	!	!	!	!	!	!LO:TX:t=P:problem:kreska pseudotaktowa	!	!LO:TX:t=P:problem:kreska pseudotaktowa	!
.	.	.	.	.	.	.	.	4r	.	4r	.
!LO:TX:t=P:problem:kreska pseudotaktowa	!	!	!LO:TX:t=P:problem:kreska pseudotaktowa	!	!	!LO:TX:t=P:problem:kreska pseudotaktowa	!	!	!	!	!
8E\	.	.	8E\	.	.	8E\	.	.	.	.	.
!LO:LB:g=original	!	!	!	!	!	!	!	!	!	!	!
=91-	=91	=91	=91	=91	=91	=91	=91	=91	=91	=91	=91
2.F#\	6	.	2.F#\	6	.	2.F#\	.	4r	.	2.r	.
!	!	!	!	!	!	!	!	!	!LO:DY:t=piano	!	!
.	.	.	.	.	.	.	.	4.dd\	p	.	.
.	.	.	.	.	.	.	.	8b/	.	.	.
!	!	!	!	!	!	!	!	!LO:TX:t=P:problem:kreska pseudotaktowa	!	!	!
!LO:TX:t=P:problem:kreska pseudotaktowa	!	!	!LO:TX:t=P:problem:kreska pseudotaktowa	!	!	!LO:TX:t=P:problem:kreska pseudotaktowa	!	!LO:N:acc=-	!	!	!
2.E\	-6	.	2.E\	-6	.	2.E\	.	[2.ccn\	.	4r	.
.	.	.	.	.	.	.	.	.	.	4.gg\	p
!	!	!	!	!	!	!	!	!	!	!LO:SIC:v:t=custos ff	!
.	.	.	.	.	.	.	.	.	.	8ee\	.
!	!	!	!	!	!	!	!	!	!	!LO:LB:g=original	!
=92	=92	=92	=92	=92	=92	=92	=92	=92	=92	=92-	=92
2D/	7 3	.	2D/	7 #	.	2D/	.	2cc\]	.	2ff#\	.
4E\	.	.	4E\	.	.	4E\	.	4b/	.	4gg\	.
!LO:N:acc=-	!	!	!LO:N:acc=-	!	!	!LO:N:acc=-	!	!	!	!	!
4Cn/	.	.	4Cn/	6 5	.	4Cn/	.	2a/	.	2gg\	.
4D/	.	.	4D/	4	.	4D/	.	.	.	.	.
!LO:TX:t=P:problem:kreska pseudotaktowa	!	!	!LO:TX:t=P:problem:kreska pseudotaktowa	!	!	!LO:TX:t=P:problem:kreska pseudotaktowa	!	!LO:TX:t=P:problem:kreska pseudotaktowa	!	!LO:TX:t=P:problem:kreska pseudotaktowa	!
4DD/	.	.	4DD/	#	.	4DD/	.	4a/	.	4ff#\	.
=93	=93	=93	=93	=93	=93	=93	=93	=93	=93	=93	=93
!	!	!	!	!	!	!LO:SIC:v:t=custos F	!	!LO:SIC:v:t=custos d	!	!	!
1.GG/;	.	.	1.GG/;	.	.	1.GG/	.	1.b\;	.	1.gg\;<	.
*	*	*	*	*	*	*clefC3	*	*	*	*	*
!	!	!	!	!	!	!LO:LB:g=original	!	!LO:LB:g=original	!	!	!
=94||	=94||	=94||	=94||	=94||	=94||	=94||	=94||	=94||	=94||	=94||	=94||
*M2/2	*	*	*M2/2	*	*	*M2/2	*	*M2/2	*	*M2/2	*
*met(c|)	*	*	*met(c|)	*	*	*met(c|)	*	*met(c|)	*	*met(c|)	*
!	!	!	!	!	!	!LO:TX:a:t=12.	!	!LO:TX:a:t=7	!	!	!
4G\	.	.	4G\	.	.	00r	.	00r	.	16r	.
.	.	.	.	.	.	.	.	.	.	16g/LL	.
.	.	.	.	.	.	.	.	.	.	16a/	.
.	.	.	.	.	.	.	.	.	.	16b/JJ	.
!	!	!	!	!	!	!	!	!	!	!LO:N:acc=-	!
4E\	6	.	4E\	- 6	.	.	.	.	.	16ccn\LL	.
.	.	.	.	.	.	.	.	.	.	16ee\	.
.	.	.	.	.	.	.	.	.	.	16dd\	.
.	.	.	.	.	.	.	.	.	.	16cc\JJ	.
4F#\	6	.	4F#\	6	.	.	.	.	.	16dd\LL	.
.	.	.	.	.	.	.	.	.	.	16a\	.
.	.	.	.	.	.	.	.	.	.	16b\	.
!	!	!	!	!	!	!	!	!	!	!LO:N:acc=-	!
!	!	!	!	!	!	!	!	!	!	!LO:TX:t=P:problem:♭above	!
.	.	.	.	.	.	.	.	.	.	16ccn\JJ	.
!LO:TX:t=P:problem:kreska pseudotaktowa	!	!	!LO:TX:t=P:problem:kreska pseudotaktowa	!	!	!	!	!	!	!	!
4FF#/	6	.	4FF#/	6	.	.	.	.	.	16dd\LL	.
.	.	.	.	.	.	.	.	.	.	16ee\	.
!	!	!	!	!	!	!	!	!	!	!LO:N:acc=-	!
!	!	!	!	!	!	!	!	!	!	!LO:TX:t=P:problem:♭above	!
.	-5	.	.	5	.	.	.	.	.	16ccn\	.
!	!	!	!	!	!	!	!	!	!	!LO:TX:t=P:problem:kreska pseudotaktowa	!
.	.	.	.	.	.	.	.	.	.	16dd\JJ	.
=95	=95	=95	=95	=95	=95	=95-	=95	=95-	=95	=95	=95
8GG/L	6	.	8GG/L	6\	.	.	.	.	.	16b\LL	.
.	5	.	.	5	.	.	.	.	.	16gg\	.
8AA/	.	.	8AA/	.	.	.	.	.	.	16ff#\	.
.	.	.	.	.	.	.	.	.	.	16ee\JJ	.
8BB/	.	.	8BB/	.	.	.	.	.	.	16dd\LL	.
.	.	.	.	.	.	.	.	.	.	16b\	.
8C#/J	6	.	8C#/J	6	.	.	.	.	.	16a\	.
.	5	.	.	5	.	.	.	.	.	16g\JJ	.
!	!	!	!LO:LB:g=original	!	!	!	!	!	!	!	!
4.D/	.	.	4.D/	.	.	.	.	.	.	16f#/LL	.
.	.	.	.	.	.	.	.	.	.	16a/	.
.	.	.	.	.	.	.	.	.	.	16b/	.
.	.	.	.	.	.	.	.	.	.	16cc#/JJ	.
.	.	.	.	.	.	.	.	.	.	16dd\LL	.
.	.	.	.	.	.	.	.	.	.	16ee\	.
!LO:TX:t=P:problem:kreska pseudotaktowa	!	!	!LO:TX:t=P:problem:kreska pseudotaktowa	!	!	!	!	!	!	!	!
8D/	.	.	8D/	.	.	.	.	.	.	16ff#\	.
.	.	.	.	.	.	.	.	.	.	16gg\JJ	.
!	!	!	!	!	!	!	!	!	!	!LO:LB:g=original	!
=96	=96	=96	=96	=96	=96	=96-	=96	=96-	=96	=96	=96
8C#/L	6	.	8C#/L	6	.	.	.	.	.	16aa\LL	.
.	.	.	.	.	.	.	.	.	.	16ee\	.
8D/J	.	.	8D/J	.	.	.	.	.	.	16ff#\	.
.	.	.	.	.	.	.	.	.	.	16dd\JJ	.
8G#X\L	6	.	8G#X\L	6	.	.	.	.	.	16ee\LL	.
.	.	.	.	.	.	.	.	.	.	16b\	.
8A\J	.	.	8A\J	#	.	.	.	.	.	16cc#\	.
.	.	.	.	.	.	.	.	.	.	16a\JJ	.
8F#\L	6	.	8F#\L	6	.	.	.	.	.	16dd\LL	.
.	.	.	.	.	.	.	.	.	.	16a\	.
!LO:SIC:v:s=8Gn\	!	!	!LO:SIC:v:s=8Gn\	!	!	!	!	!	!	!	!
8G#\J	.	.	8G#\J	.	.	.	.	.	.	16b\	.
.	.	.	.	.	.	.	.	.	.	16g\JJ	.
8BB/L	6	.	8BB/L	6	.	.	.	.	.	16gg\LL	.
.	.	.	.	.	.	.	.	.	.	16dd\	.
!LO:TX:t=P:problem:kreska pseudotaktowa	!	!	!LO:TX:t=P:problem:kreska pseudotaktowa	!	!	!	!	!	!	!	!
!LO:N:acc=-	!	!	!LO:N:acc=-	!	!	!	!	!	!	!	!
8Cn/J	.	.	8Cn/J	.	.	.	.	.	.	16ee\	.
!	!	!	!	!	!	!	!	!	!	!LO:TX:t=P:problem:kreska pseudotaktowa	!
!	!	!	!	!	!	!	!	!	!	!LO:N:acc=-	!
!	!	!	!	!	!	!	!	!	!	!LO:TX:t=P:problem:♭above	!
.	.	.	.	.	.	.	.	.	.	16ccn\JJ	.
!LO:LB:g=original	!	!	!	!	!	!	!	!	!	!	!
=97	=97	=97	=97	=97	=97	=97-	=97	=97-	=97	=97	=97
8C#X/L	6	.	8C#X/L	6	.	.	.	.	.	16aa\LL	.
.	.	.	.	.	.	.	.	.	.	16ee\	.
8D/J	.	.	8D/J	.	.	.	.	.	.	16ff#\	.
.	.	.	.	.	.	.	.	.	.	16dd\JJ	.
!	!	!	!	!	!	!	!	!	!	!LO:TX:t=P:problem:mixed beam	!
8E\L	-	.	8E\L	-	.	.	.	.	.	16gg\LL	.
.	.	.	.	.	.	.	.	.	.	16ee\	.
8F#\J	.	.	8F#\J	.	.	.	.	.	.	16aa\	.
.	.	.	.	.	.	.	.	.	.	16a/JJ	.
4D/	.	.	4D/	.	.	.	.	.	.	16dd\LL	.
.	.	.	.	.	.	.	.	.	.	16ee\	.
.	.	.	.	.	.	.	.	.	.	16cc#\	.
.	.	.	.	.	.	.	.	.	.	16dd\JJ	.
!LO:TX:t=P:problem:kreska pseudotaktowa	!	!	!LO:TX:t=P:problem:kreska pseudotaktowa	!	!	!	!	!	!	!	!
4E\	#	.	4E\	#	.	.	.	.	.	16b/LL	.
.	.	.	.	.	.	.	.	.	.	16a/	.
.	.	.	.	.	.	.	.	.	.	16b/	.
!	!	!	!	!	!	!	!	!	!	!LO:TX:t=P:problem:kreska pseudotaktowa	!
.	.	.	.	.	.	.	.	.	.	16cc#/JJ	.
=98	=98	=98	=98	=98	=98	=98-	=98	=98-	=98	=98	=98
4AA/	.	.	4AA/	#	.	00r	.	0r	.	16a\LL	.
.	.	.	.	.	.	.	.	.	.	16a\	.
.	.	.	.	.	.	.	.	.	.	16b\	.
.	.	.	.	.	.	.	.	.	.	16cc#\JJ	.
4FF#/	6	.	4FF#/	6	.	.	.	.	.	16dd\LL	.
.	.	.	.	.	.	.	.	.	.	16ff#\	.
.	.	.	.	.	.	.	.	.	.	16ee\	.
.	.	.	.	.	.	.	.	.	.	16dd\JJ	.
4.GG#X/	6	.	4.GG#X/	6	.	.	.	.	.	16ee\LL	.
.	.	.	.	.	.	.	.	.	.	16b\	.
.	.	.	.	.	.	.	.	.	.	16cc#\	.
.	.	.	.	.	.	.	.	.	.	16dd\JJ	.
.	.	.	.	.	.	.	.	.	.	16ee\LL	.
.	.	.	.	.	.	.	.	.	.	16ff#\	.
!LO:TX:t=P:problem:kreska pseudotaktowa	!	!	!LO:TX:t=P:problem:kreska pseudotaktowa	!	!	!	!	!	!	!	!
8GG#/	5	.	8GG#/	5	.	.	.	.	.	16dd\	.
!	!	!	!	!	!	!	!	!	!	!LO:SIC:v:t=custos cc	!
.	.	.	.	.	.	.	.	.	.	16ee\JJ	.
!	!	!	!	!	!	!	!	!	!	!LO:LB:g=original	!
=99	=99	=99	=99	=99	=99	=99-	=99	=99-	=99	=99	=99
8AA/L	6	.	8AA/L	6	.	.	.	.	.	16cc#\LL	.
.	5	.	.	5	.	.	.	.	.	16aa\	.
8BB/	.	.	8BB/	.	.	.	.	.	.	16gg\	.
.	.	.	.	.	.	.	.	.	.	16ff#\JJ	.
!LO:TX:t=P:problem: ♭below	!	!	!	!	!	!	!	!	!	!	!
!LO:TX:t=P:problem:♭below	!	!	!LO:TX:t=P:problem:♭below	!	!	!	!	!	!	!	!
!LO:N:acc=-	!	!	!LO:N:acc=-	!	!	!	!	!	!	!	!
8Cn/	.	.	8Cn/	.	.	.	.	.	.	16ee\LL	.
!	!	!	!	!	!	!	!	!	!	!LO:TX:t=P:problem:♭above	!
!	!	!	!	!	!	!	!	!	!	!LO:N:acc=-	!
.	.	.	.	.	.	.	.	.	.	16ccn\	.
8D/J	6	.	8D/J	6	.	.	.	.	.	16b\	.
.	5	.	.	5	.	.	.	.	.	16a\JJ	.
4E\	.	.	4E\	-	.	.	.	.	.	16g\LL	.
.	.	.	.	.	.	.	.	.	.	16b\	.
!	!	!	!	!	!	!	!	!	!	!LO:TX:t=P:problem:♭above	!
!	!	!	!	!	!	!	!	!	!	!LO:N:acc=-	!
.	.	.	.	.	.	.	.	.	.	16ccn\	.
.	.	.	.	.	.	.	.	.	.	16dd\JJ	.
!LO:TX:t=P:problem:kreska pseudotaktowa	!	!	!LO:TX:t=P:problem:kreska pseudotaktowa	!	!	!	!	!	!	!	!
!LO:N:acc=-	!	!	!LO:N:acc=-	!	!	!	!	!	!	!LO:TX:t=P:problem:mixed beam	!
4Cn/	6	.	4Cn/	6	.	.	.	.	.	16ee\LL	.
.	.	.	.	.	.	.	.	.	.	16e/	.
.	.	.	.	.	.	.	.	.	.	16f#/	.
!	!	!	!	!	!	!	!	!	!	!LO:TX:t=P:problem:kreska pseudotaktowa	!
.	.	.	.	.	.	.	.	.	.	16g/JJ	.
=100	=100	=100	=100	=100	=100	=100-	=100	=100-	=100	=100	=100
8D/L	.	.	8D/L	.	.	.	.	1r	.	16f#/LL	.
.	.	.	.	.	.	.	.	.	.	16a/	.
!LO:N:acc=-	!	!	!LO:N:acc=-	!	!	!	!	!	!	!	!
8Cn/	.	.	8Cn/	.	.	.	.	.	.	16b/	.
!	!	!	!	!	!	!	!	!	!	!LO:SIC:v:s=16ccn/JJ	!
.	.	.	.	.	.	.	.	.	.	16cc#/JJ	.
8BB/	.	.	8BB/	.	.	.	.	.	.	16dd\LL	.
.	.	.	.	.	.	.	.	.	.	16dd\	.
8AA/J	6	.	8AA/J	6\	.	.	.	.	.	16ee\	.
.	.	.	.	.	.	.	.	.	.	16ff#\JJ	.
!	!	!	!	!	!	!	!	!	!	!LO:TX:t=P:problem:mixed beam	!
8GG/L	.	.	8GG/L	.	.	.	.	.	.	8gg\L	.
!LO:N:acc=-	!	!	!LO:N:acc=-	!	!	!	!	!	!	!	!
8Cn/J	6 5	.	8Cn/J	6 5	.	.	.	.	.	8a/J	.
!LO:TX:t=P:problem:mixed beam	!	!	!LO:TX:t=P:problem:mixed beam	!	!	!	!	!	!	!	!
8D\L	4	.	8D\L	4	.	.	.	.	.	8.a/L	.
8DD/J	3	.	8DD/J	#	.	.	.	.	.	.	.
!	!	!	!	!	!	!	!	!	!	!LO:TX:t=P:problem:kreska pseudotaktowa	!
.	.	.	.	.	.	.	.	.	.	16b/Jk	.
!	!	!	!LO:LB:g=original	!	!	!	!	!	!	!	!
=101-	=101	=101	=101-	=101	=101	=101-	=101	=101-	=101	=101	=101
!LO:TX:t=P:problem:mixed beam	!	!	!LO:TX:t=P:problem:mixed beam	!	!	!	!	!	!	!	!
8GG/L	.	.	8GG/L	.	.	.	.	16r	.	4b/	.
.	.	.	.	.	.	.	.	16d/LL	.	.	.
8G\J	.	.	8G\J	.	.	.	.	16e/	.	.	.
.	.	.	.	.	.	.	.	16f#/JJ	.	.	.
4BB/	6	.	4BB/	6	.	.	.	16g/LL	.	4r	.
.	.	.	.	.	.	.	.	16b/	.	.	.
.	.	.	.	.	.	.	.	16a/	.	.	.
.	.	.	.	.	.	.	.	16g/JJ	.	.	.
4.C#/	6	.	4.C#/	6	.	.	.	16a/LL	.	2r	.
.	5	.	.	5	.	.	.	16e/	.	.	.
.	.	.	.	.	.	.	.	16f#/	.	.	.
.	.	.	.	.	.	.	.	16g/JJ	.	.	.
.	.	.	.	.	.	.	.	16a/LL	.	.	.
.	.	.	.	.	.	.	.	16b/	.	.	.
!LO:TX:t=P:problem:kreska pseudotaktowa	!	!	!LO:TX:t=P:problem:kreska pseudotaktowa	!	!	!	!	!	!	!	!
8C#/	.	.	8C#/	.	.	.	.	16g/	.	.	.
!	!	!	!	!	!	!	!	!LO:TX:t=P:problem:kreska pseudotaktowa	!	!	!
.	.	.	.	.	.	.	.	16a/JJ	.	.	.
!LO:LB:g=original	!	!	!	!	!	!	!	!	!	!	!
=102	=102	=102	=102	=102	=102	=102-	=102	=102	=102	=102-	=102
!	!	!	!	!	!	!	!	!LO:TX:t=P:problem:mixed beam	!	!LO:TX:a:t=10	!
8D\L	.	.	8D\L	.	.	00r	.	16f#/LL	.	00r	.
.	.	.	.	.	.	.	.	16dd\	.	.	.
8E\	6	.	8E\	6\	.	.	.	16cc#\	.	.	.
.	5	.	.	5	.	.	.	16b\JJ	.	.	.
8F#\	.	.	8F#\	.	.	.	.	16a/LL	.	.	.
.	.	.	.	.	.	.	.	16f#/	.	.	.
8G\J	6	.	8G\J	6	.	.	.	16e/	.	.	.
.	5	.	.	5	.	.	.	16d/JJ	.	.	.
!	!	!	!	!	!	!	!	!LO:TX:t=P:problem:♯below	!	!	!
4.A\	.	.	4.A\	.	.	.	.	16c#X/LL	.	.	.
.	.	.	.	.	.	.	.	16e/	.	.	.
.	.	.	.	.	.	.	.	16f#/	.	.	.
.	.	.	.	.	.	.	.	16g/JJ	.	.	.
.	.	.	.	.	.	.	.	16a\LL	.	.	.
.	.	.	.	.	.	.	.	16b\	.	.	.
!LO:TX:t=P:problem:kreska pseudotaktowa	!	!	!LO:TX:t=P:problem:kreska pseudotaktowa	!	!	!	!	!	!	!	!
8A\	.	.	8A\	.	.	.	.	16cc#\	.	.	.
!	!	!	!	!	!	!	!	!LO:TX:t=P:problem:kreska pseudotaktowa	!	!	!
.	.	.	.	.	.	.	.	16dd\JJ	.	.	.
=103	=103	=103	=103	=103	=103	=103-	=103	=103	=103	=103-	=103
4G#X\	6	.	4G#X\	6	.	.	.	16ee\LL	.	.	.
.	.	.	.	.	.	.	.	16ee\	.	.	.
.	.	.	.	.	.	.	.	16ff#\	.	.	.
!	!	!	!	!	!	!	!	!LO:TX:t=P:problem:♯above	!	!	!
.	.	.	.	.	.	.	.	16gg#X\JJ	.	.	.
4F#\	7	.	4F#\	7	.	.	.	16aa\LL	.	.	.
.	.	.	.	.	.	.	.	16ee\	.	.	.
.	.	.	.	.	.	.	.	16ff#\	.	.	.
.	.	.	.	.	.	.	.	16cc#\JJ	.	.	.
4F#\	6	.	4F#\	6	.	.	.	16dd\LL	.	.	.
.	.	.	.	.	.	.	.	16ff#\	.	.	.
.	.	.	.	.	.	.	.	16ee\	.	.	.
.	.	.	.	.	.	.	.	16dd\JJ	.	.	.
!LO:TX:t=P:problem:kreska pseudotaktowa	!	!	!LO:TX:t=P:problem:kreska pseudotaktowa	!	!	!	!	!	!	!	!
[4E\	7	.	[4E\	7	.	.	.	16gg#\LL	.	.	.
.	.	.	.	.	.	.	.	16dd\	.	.	.
.	.	.	.	.	.	.	.	16ee\	.	.	.
!	!	!	!	!	!	!	!	!LO:SIC:v:t=custos cc	!	!	!
.	.	.	.	.	.	.	.	16b\JJ	.	.	.
!	!	!	!	!	!	!	!	!LO:LB:g=original	!	!	!
=104	=104	=104	=104	=104	=104	=104-	=104	=104-	=104	=104-	=104
4E\]	6	.	4E\]	6\	.	.	.	16cc#\LL	.	.	.
.	.	.	.	.	.	.	.	16ee\	.	.	.
.	.	.	.	.	.	.	.	16dd\	.	.	.
.	.	.	.	.	.	.	.	16ee\JJ	.	.	.
4E\	6	.	4E\	6\	.	.	.	16cc#/LL	.	.	.
.	.	.	.	.	.	.	.	16b/	.	.	.
.	.	.	.	.	.	.	.	16a/	.	.	.
.	.	.	.	.	.	.	.	16g/JJ	.	.	.
4.D/	.	.	4.D/	.	.	.	.	16f#/LL	.	.	.
.	.	.	.	.	.	.	.	16a/	.	.	.
.	.	.	.	.	.	.	.	16b/	.	.	.
.	.	.	.	.	.	.	.	16cc#/JJ	.	.	.
.	.	.	.	.	.	.	.	16dd\LL	.	.	.
.	.	.	.	.	.	.	.	16ee\	.	.	.
!LO:TX:t=P:problem:kreska pseudotaktowa	!	!	!LO:TX:t=P:problem:kreska pseudotaktowa	!	!	!	!	!	!	!	!
8D/	.	.	8D/	.	.	.	.	16ff#\	.	.	.
!	!	!	!	!	!	!	!	!LO:TX:t=P:problem:kreska pseudotaktowa	!	!	!
.	.	.	.	.	.	.	.	16ggny\JJ	.	.	.
=105	=105	=105	=105	=105	=105	=105-	=105	=105	=105	=105-	=105
!	!	!	!	!	!	!	!	!LO:TX:t=P:problem:mixed beam	!	!	!
4C#/	6	.	4C#/	6	.	.	.	16aa\LL	.	.	.
.	.	.	.	.	.	.	.	16a/	.	.	.
.	.	.	.	.	.	.	.	16b/	.	.	.
.	.	.	.	.	.	.	.	16cc#/JJ	.	.	.
2BB/	7	.	2BB/	7	.	.	.	16dd\LL	.	.	.
.	.	.	.	.	.	.	.	16ff#\	.	.	.
.	.	.	.	.	.	.	.	16ee\	.	.	.
.	.	.	.	.	.	.	.	16dd\JJ	.	.	.
.	6	.	.	6	.	.	.	16ee\LL	.	.	.
.	.	.	.	.	.	.	.	16b\	.	.	.
.	.	.	.	.	.	.	.	16cc#\	.	.	.
.	.	.	.	.	.	.	.	16dd\JJ	.	.	.
!LO:TX:t=P:problem:kreska pseudotaktowa	!	!	!LO:TX:t=P:problem:kreska pseudotaktowa	!	!	!	!	!LO:TX:t=P:problem:mixed beam	!	!	!
[4AA/	.	.	[4AA/	.	.	.	.	16cc#\LL	.	.	.
.	.	.	.	.	.	.	.	16e/	.	.	.
.	.	.	.	.	.	.	.	16f#/	.	.	.
!	!	!	!	!	!	!	!	!LO:TX:t=P:problem:kreska pseudotaktowa	!	!	!
.	.	.	.	.	.	.	.	16g/JJ	.	.	.
=106	=106	=106	=106	=106	=106	=106-	=106	=106	=106	=106-	=106
4AA/]	.	.	4AA/]	.	.	2r	.	16a/LL	.	00r	.
.	.	.	.	.	.	.	.	16b/	.	.	.
.	.	.	.	.	.	.	.	16g/	.	.	.
.	.	.	.	.	.	.	.	16a/JJ	.	.	.
!	!	!	!	!	!	!	!	!LO:TX:t=P:problem:mixed beam	!	!	!
4D/	.	.	4D/	.	.	.	.	16f#/LL	.	.	.
.	.	.	.	.	.	.	.	16ff#\	.	.	.
.	.	.	.	.	.	.	.	16gg\	.	.	.
.	.	.	.	.	.	.	.	16aa\JJ	.	.	.
4GG/	6 5	.	4GG/	6 5	.	4r	.	16bb\LL	.	.	.
.	.	.	.	.	.	.	.	16gg\	.	.	.
.	.	.	.	.	.	.	.	16aa\	.	.	.
.	.	.	.	.	.	.	.	16bb\JJ	.	.	.
!LO:TX:t=P:problem:kreska pseudotaktowa	!	!	!LO:TX:t=P:problem:kreska pseudotaktowa	!	!	!	!	!LO:TX:a:t=t.	!	!	!
4AA/	.	.	4AA/	.	.	8r	.	8.ee\L	.	.	.
!	!	!	!	!	!	!LO:TX:t=P:problem:kreska pseudotaktowa	!	!	!	!	!
.	.	.	.	.	.	8e\	.	.	.	.	.
!	!	!	!	!	!	!	!	!LO:TX:t=P:problem:kreska pseudotaktowa	!	!	!
.	.	.	.	.	.	.	.	16dd\Jk	.	.	.
=107	=107	=107	=107	=107	=107	=107	=107	=107	=107	=107-	=107
4.D/	.	.	4.D/	.	.	8f#\L	.	4dd\	.	.	.
.	.	.	.	.	.	8f#\	.	.	.	.	.
.	.	.	.	.	.	8f#\	.	4r	.	.	.
8C#/	.	.	8C#/	.	.	8f#\J	.	.	.	.	.
2BB/	6\	.	2BB/	6\	.	4.g#X\	.	2r	.	.	.
!	!	!	!	!	!	!LO:TX:t=P:problem:kreska pseudotaktowa	!	!	!	!	!
.	.	.	.	.	.	8g#\	.	.	.	.	.
!	!	!	!LO:LB:g=original	!	!	!	!	!	!	!	!
=108	=108	=108	=108	=108	=108	=108	=108	=108-	=108	=108-	=108
!	!	!	!	!	!	!LO:TX:t=P:problem:mixed beam	!	!LO:TX:a:t=5	!	!	!
4AA/	#	.	4AA/	#	.	16a\LL	.	00r	.	.	.
.	.	.	.	.	.	16A/	.	.	.	.	.
.	.	.	.	.	.	16B/	.	.	.	.	.
.	.	.	.	.	.	16c#/JJ	.	.	.	.	.
4FF#/	6	.	4FF#/	6	.	16d\LL	.	.	.	.	.
.	.	.	.	.	.	16f#\	.	.	.	.	.
.	.	.	.	.	.	16e\	.	.	.	.	.
.	.	.	.	.	.	16d\JJ	.	.	.	.	.
!LO:TX:t=P:problem:kreska pseudotaktowa	!	!	!LO:TX:t=P:problem:kreska pseudotaktowa	!	!	!	!	!	!	!	!
2GG#X/	6	.	2GG#X/	6	.	16e\LL	.	.	.	.	.
.	.	.	.	.	.	16B\	.	.	.	.	.
.	.	.	.	.	.	16c#\	.	.	.	.	.
.	.	.	.	.	.	16d\JJ	.	.	.	.	.
.	.	.	.	.	.	16e\LL	.	.	.	.	.
.	.	.	.	.	.	16f#\	.	.	.	.	.
.	.	.	.	.	.	16d\	.	.	.	.	.
!	!	!	!	!	!	!LO:TX:t=P:problem:kreska pseudotaktowa	!	!	!	!	!
.	.	.	.	.	.	16e\JJ	.	.	.	.	.
!LO:LB:g=original	!	!	!	!	!	!	!	!	!	!	!
=109	=109	=109	=109	=109	=109	=109	=109	=109-	=109	=109-	=109
!	!	!	!	!	!	!LO:TX:t=P:problem:mixed beam	!	!	!	!	!
8AA/L	.	.	8AA/L	.	.	16c#\LL	.	.	.	.	.
.	.	.	.	.	.	16a\	.	.	.	.	.
8BB/	.	.	8BB/	.	.	16g\	.	.	.	.	.
.	.	.	.	.	.	16f#\JJ	.	.	.	.	.
8C#/	.	.	8C#/	.	.	16e\LL	.	.	.	.	.
.	.	.	.	.	.	16c#\	.	.	.	.	.
8D/J	.	.	8D/J	.	.	16B\	.	.	.	.	.
.	.	.	.	.	.	16A\JJ	.	.	.	.	.
!LO:TX:t=P:problem:kreska pseudotaktowa	!	!	!LO:TX:t=P:problem:kreska pseudotaktowa	!	!	!LO:TX:t=P:problem:♯below	!	!	!	!	!
2E\	#	.	2E\	#	.	16G#X/LL	.	.	.	.	.
.	.	.	.	.	.	16B/	.	.	.	.	.
.	.	.	.	.	.	16E/	.	.	.	.	.
.	.	.	.	.	.	16F#/JJ	.	.	.	.	.
!	!	!	!	!	!	!LO:LB:g=original	!	!	!	!	!
!	!	!	!	!	!	!LO:TX:t=P:problem:♯below	!	!	!	!	!
.	.	.	.	.	.	16G#X/LL	.	.	.	.	.
.	.	.	.	.	.	16A/	.	.	.	.	.
.	.	.	.	.	.	16B/	.	.	.	.	.
!	!	!	!	!	!	!LO:TX:t=P:problem:kreska pseudotaktowa	!	!	!	!	!
.	.	.	.	.	.	16c#/JJ	.	.	.	.	.
=110	=110	=110	=110	=110	=110	=110	=110	=110-	=110	=110-	=110
2BB/	-	.	2BB/	-	.	16d\LL	.	.	.	0r	.
.	.	.	.	.	.	16f#\	.	.	.	.	.
.	.	.	.	.	.	16B\	.	.	.	.	.
.	.	.	.	.	.	16c#\JJ	.	.	.	.	.
.	.	.	.	.	.	16d\LL	.	.	.	.	.
.	.	.	.	.	.	16e\	.	.	.	.	.
.	.	.	.	.	.	16f#\	.	.	.	.	.
!	!	!	!	!	!	!LO:TX:t=P:problem:♯above	!	!	!	!	!
.	.	.	.	.	.	16g#X\JJ	.	.	.	.	.
2C#/	6	.	2C#/	6	.	16a\LL	.	.	.	.	.
.	.	.	.	.	.	16e\	.	.	.	.	.
.	.	.	.	.	.	16f#\	.	.	.	.	.
.	.	.	.	.	.	16g#\JJ	.	.	.	.	.
.	.	.	.	.	.	16a\LL	.	.	.	.	.
.	.	.	.	.	.	16e\	.	.	.	.	.
.	.	.	.	.	.	16d\	.	.	.	.	.
!	!	!	!	!	!	!LO:TX:t=P:problem:kreska pseudotaktowa	!	!	!	!	!
.	.	.	.	.	.	16c#\JJ	.	.	.	.	.
=111-	=111	=111	=111-	=111	=111	=111	=111	=111-	=111	=111-	=111
2.BB/	7	.	2.BB/	7	.	16d/LL	.	.	.	.	.
.	.	.	.	.	.	16B/	.	.	.	.	.
.	.	.	.	.	.	16A/	.	.	.	.	.
!	!	!	!	!	!	!LO:SIC:v:s=16G#/JJ	!	!	!	!	!
.	6\	.	.	6\	.	16G/JJ	.	.	.	.	.
*	*	*	*	*	*	*clefF4	*	*	*	*	*
*	*	*	*	*	*	*k[f#c#]	*	*	*	*	*
.	.	.	.	.	.	16F#\LL	.	.	.	.	.
.	.	.	.	.	.	16E\	.	.	.	.	.
.	.	.	.	.	.	16D\	.	.	.	.	.
.	.	.	.	.	.	16C#\JJ	.	.	.	.	.
.	.	.	.	.	.	16BB/LL	.	.	.	.	.
.	.	.	.	.	.	16D/	.	.	.	.	.
.	.	.	.	.	.	16C#/	.	.	.	.	.
.	.	.	.	.	.	16BB/JJ	.	.	.	.	.
!LO:TX:t=P:problem:kreska pseudotaktowa	!	!	!LO:TX:t=P:problem:kreska pseudotaktowa	!	!	!	!	!	!	!	!
4AA/	.	.	4AA/	.	.	16AA/LL	.	.	.	.	.
.	.	.	.	.	.	16BB/	.	.	.	.	.
.	.	.	.	.	.	16C#/	.	.	.	.	.
!	!	!	!	!	!	!LO:TX:t=P:problem:kreska pseudotaktowa	!	!	!	!	!
.	.	.	.	.	.	16D/JJ	.	.	.	.	.
=112	=112	=112	=112	=112	=112	=112	=112	=112-	=112	=112-	=112
!	!	!	!	!	!	!	!	!LO:SIC:v:t=custos e	!	!	!
4E\	.	.	4E\	.	.	16E\LL	.	1r	.	2r	.
.	.	.	.	.	.	16F#\	.	.	.	.	.
!	!	!	!	!	!	!LO:TX:t=P:problem:♯above	!	!	!	!	!
.	.	.	.	.	.	16G#X\	.	.	.	.	.
.	.	.	.	.	.	16E\JJ	.	.	.	.	.
!LO:TX:t=P:problem:mixed beam	!	!	!LO:TX:t=P:problem:mixed beam	!	!	!LO:TX:t=P:problem:mixed beam	!	!	!	!	!
8A\L	.	.	8A\L	.	.	16A\LL	.	.	.	.	.
.	.	.	.	.	.	16AA/	.	.	.	.	.
16C#/L	.	.	16C#/L	.	.	16C#/	.	.	.	.	.
!	!	!	!	!	!	!LO:SIC:v:t=custos E	!	!	!	!	!
16D/JJ	.	.	16D\JJ	.	.	16D/JJ	.	.	.	.	.
!	!	!	!	!	!	!LO:LB:g=original	!	!	!	!	!
4.E\	.	.	4.E\	.	.	16E\LL	.	.	.	4r	.
.	.	.	.	.	.	16D\	.	.	.	.	.
.	.	.	.	.	.	16E\	.	.	.	.	.
.	.	.	.	.	.	16F#\JJ	.	.	.	.	.
!	!	!	!	!	!	!LO:TX:t=P:problem:mixed beam	!	!	!	!LO:SIC:v:t=custos cc	!
.	.	.	.	.	.	8E\L	.	.	.	4b/	.
!LO:TX:t=P:problem:kreska pseudotaktowa	!	!	!LO:TX:t=P:problem:kreska pseudotaktowa	!	!	!LO:TX:t=P:problem:kreska pseudotaktowa	!	!	!	!	!
8EE/	.	.	8EE/	.	.	8EE/J	.	.	.	.	.
!	!	!	!	!	!	!	!	!LO:LB:g=original	!	!LO:PB:g=original	!
=113	=113	=113	=113	=113	=113	=113	=113	=113-	=113	=113-	=113
!	!	!	!	!	!	!LO:TX:t=P:problem:mixed beam	!	!	!	!	!
2AA/	.	.	2AA/	.	.	16AA/LL	.	4r	.	8cc#\L	.
.	.	.	.	.	.	16E\	.	.	.	.	.
.	.	.	.	.	.	16F#\	.	.	.	8cc#\	.
.	.	.	.	.	.	16G\JJ	.	.	.	.	.
.	.	.	.	.	.	16A\LL	.	8r	.	8cc#\	.
.	.	.	.	.	.	16B\	.	.	.	.	.
.	.	.	.	.	.	16G\	.	8e/	.	8cc#\J	.
.	.	.	.	.	.	16A\JJ	.	.	.	.	.
!LO:SIC:v:t=custos GG	!	!	!LO:SIC:v:t=custos GG	!	!	!	!	!	!	!	!
2D/	.	.	2D/	.	.	4.D/	.	8f#/L	.	16dd\LL	.
.	.	.	.	.	.	.	.	.	.	16a\	.
.	.	.	.	.	.	.	.	8f#/	.	16b\	.
.	.	.	.	.	.	.	.	.	.	16cc#\JJ	.
.	.	.	.	.	.	.	.	8f#/	.	16dd\LL	.
.	.	.	.	.	.	.	.	.	.	16ee\	.
!	!	!	!	!	!	!LO:TX:t=P:problem:kreska pseudotaktowa	!	!LO:TX:t=P:problem:kreska pseudotaktowa	!	!	!
.	.	.	.	.	.	8D/	.	8f#/J	.	16cc#\	.
!	!	!	!	!	!	!	!	!	!	!LO:TX:t=P:problem:kreska pseudotaktowa	!
.	.	.	.	.	.	.	.	.	.	16dd\JJ	.
!LO:PB:g=original	!	!	!LO:PB:g=original	!	!	!	!	!	!	!	!
=114-	=114	=114	=114-	=114	=114	=114	=114	=114	=114	=114	=114
4GG/	.	.	4GG/	.	.	4G\	.	16g/LL	.	4b/	.
.	.	.	.	.	.	.	.	16d/	.	.	.
.	.	.	.	.	.	.	.	16e/	.	.	.
.	.	.	.	.	.	.	.	16f#/JJ	.	.	.
4BB/	.	.	4BB/	.	.	4BB/	.	16g\LL	.	8r	.
.	.	.	.	.	.	.	.	16a\	.	.	.
.	.	.	.	.	.	.	.	16b\	.	8dd\	.
!	!	!	!	!	!	!	!	!LO:TX:t=P:problem:♭above	!	!	!
!	!	!	!	!	!	!	!	!LO:N:acc=-	!	!	!
.	.	.	.	.	.	.	.	16ccn\JJ	.	.	.
8C#/L	6	.	8C#/L	.	.	8C#/L	.	16a/LL	.	8ee\L	.
.	.	.	.	.	.	.	.	16e/	.	.	.
8C#/	5	.	8C#/	6	.	8C#/	.	16f#/	.	8ee\	.
.	.	.	.	5	.	.	.	16g/JJ	.	.	.
8C#/	.	.	8C#/	.	.	8C#/	.	16a/LL	.	8ee\	.
.	.	.	.	.	.	.	.	16b/	.	.	.
!LO:TX:t=P:problem:kreska pseudotaktowa	!	!	!LO:TX:t=P:problem:kreska pseudotaktowa	!	!	!LO:TX:t=P:problem:kreska pseudotaktowa	!	!	!	!LO:TX:t=P:problem:kreska pseudotaktowa	!
8C#/J	.	.	8C#/J	.	.	8C#/J	.	16g/	.	8ee\J	.
!	!	!	!	!	!	!	!	!LO:TX:t=P:problem:kreska pseudotaktowa	!	!	!
.	.	.	.	.	.	.	.	16a/JJ	.	.	.
=115	=115	=115	=115	=115	=115	=115	=115	=115	=115	=115	=115
!	!	!	!	!	!	!	!	!LO:TX:t=P:problem:mixed beam	!	!	!
8D\L	6	.	8D\L	6\	.	8D\L	.	16f#/LL	.	8ff#\L	.
.	5	.	.	5	.	.	.	16dd\	.	.	.
8E\	.	.	8E\	.	.	8E\	.	16cc#\	.	8gg\J	.
.	.	.	.	.	.	.	.	16b\JJ	.	.	.
8F#\	.	.	8F#\	.	.	8F#\	.	16a/LL	.	8aa\L	.
.	.	.	.	.	.	.	.	16f#/	.	.	.
8G\J	6	.	8G\J	6	.	8G\J	.	16e/	.	16gg\L	.
.	5	.	.	5	.	.	.	16d/JJ	.	16ff#\JJ	.
!	!	!	!	!	!	!	!	!LO:TX:t=P:problem:♯below	!	!	!
4.A\	5	.	4.A\	5	.	4.A\	.	16c#X/LL	.	16ee\LL	.
.	.	.	.	.	.	.	.	16e/	.	16cc#\	.
.	.	.	.	.	.	.	.	16f#/	.	16dd\	.
.	.	.	.	.	.	.	.	16g/JJ	.	16ee\JJ	.
!	!	!	!	!	!	!	!	!	!	!LO:TX:t=P:problem:mixed beam	!
.	.	.	.	.	.	.	.	16a/LL	.	16ff#\LL	.
.	.	.	.	.	.	.	.	16f#/	.	16a/	.
!LO:TX:t=P:problem:kreska pseudotaktowa	!	!	!LO:TX:t=P:problem:kreska pseudotaktowa	!	!	!LO:TX:t=P:problem:kreska pseudotaktowa	!	!	!	!	!
8A\	6	.	8A\	6\	.	8A\	.	16g/	.	16b/	.
!	!	!	!	!	!	!	!	!LO:SIC:v:t=custos d	!	!LO:TX:t=P:problem:kreska pseudotaktowa	!
.	.	.	.	.	.	.	.	16a/JJ	.	16cc#/JJ	.
!	!	!	!	!	!	!	!	!LO:PB:g=original	!	!	!
=116	=116	=116	=116	=116	=116	=116	=116	=116-	=116	=116	=116
4B\	6	.	4B\	6	.	4B\	.	4d/	.	16dd\LL	.
.	.	.	.	.	.	.	.	.	.	16g\	.
.	.	.	.	.	.	.	.	.	.	16a\	.
.	.	.	.	.	.	.	.	.	.	16b\JJ	.
!	!	!	!	!	!	!	!	!	!	!LO:N:acc=-	!
4E\	-6	.	4E\	6	.	8r	.	8r	.	16ccn\LL	.
.	.	.	.	.	.	.	.	.	.	16ee\	.
.	.	.	.	-	.	8E\	.	8g/	.	16dd\	.
.	.	.	.	.	.	.	.	.	.	16cc\JJ	.
8F#\L	6	.	8F#\L	6	.	8F#\L	.	8a/L	.	16dd\LL	.
.	.	.	.	.	.	.	.	.	.	16a\	.
8F#\	.	.	8F#\	.	.	8F#\	.	8a/	.	16b\	.
!	!	!	!	!	!	!	!	!	!	!LO:N:acc=-	!
!	!	!	!	!	!	!	!	!	!	!LO:TX:t=P:problem:♭above	!
.	.	.	.	.	.	.	.	.	.	16ccn\JJ	.
8F#\	-5	.	8F#\	5	.	8F#\	.	8a/	.	16dd\LL	.
.	.	.	.	.	.	.	.	.	.	16ee\	.
!	!	!	!	!	!	!	!	!	!	!LO:N:acc=-	!
!LO:TX:t=P:problem:kreska pseudotaktowa	!	!	!LO:TX:t=P:problem:kreska pseudotaktowa	!	!	!LO:TX:t=P:problem:kreska pseudotaktowa	!	!LO:TX:t=P:problem:kreska pseudotaktowa	!	!LO:TX:t=P:problem:♭above	!
8F#\J	.	.	8F#\J	.	.	8F#\J	.	8a/J	.	16ccn\	.
.	.	.	.	.	.	.	.	.	.	16dd\JJ	.
!	!	!	!	!	!	!	!	!	!	!LO:LB:g=original	!
=117	=117	=117	=117	=117	=117	=117	=117	=117	=117	=117	=117
8G\L	.	.	8G\L	.	.	8G\L	.	8b\L	.	16b\LL	.
.	.	.	.	.	.	.	.	.	.	16gg\	.
!	!	!	!	!	!	!	!	!LO:TX:t=P:problem:♭above	!	!	!
!	!	!	!	!	!	!	!	!LO:N:acc=-	!	!	!
8A\	6	.	8A\	6 -	.	8A\	.	8ccn\J	.	16ff#\	.
.	5	.	.	5	.	.	.	.	.	16ee\JJ	.
8B\	.	.	8B\	.	.	8B\	.	8dd\L	.	16dd\LL	.
.	.	.	.	.	.	.	.	.	.	16b\	.
!	!	!	!	!	!	!LO:TX:t=P:problem:♭above	!	!LO:TX:t=P:problem:♭above	!	!	!
!LO:N:acc=-	!	!	!LO:N:acc=-	!	!	!LO:N:acc=-	!	!LO:N:acc=-	!	!	!
8cn\J	6	.	8cn\J	6	.	8cn\J	.	16ccn\L	.	16a\	.
.	5	.	.	5	.	.	.	16b\JJ	.	16g\JJ	.
!	!	!	!	!	!	!LO:TX:t=P:problem:mixed beam	!	!	!	!	!
8d\L	.	.	8d\L	.	.	8d\L	.	8a/L	.	8f#/L	.
!	!	!	!	!	!	!LO:TX:t=P:problem:♭above	!	!	!	!	!
!LO:N:acc=-	!	!	!LO:N:acc=-	!	!	!LO:N:acc=-	!	!	!	!	!
8cn\J	6 5	.	8cn\J	6 5	.	8cn\	.	8a/	.	8g/J	.
!LO:TX:t=P:problem:mixed beam	!	!	!LO:TX:t=P:problem:mixed beam	!	!	!	!	!	!	!	!
8d\L	4	.	8d\L	4	.	8d\	.	8.a/	.	8.g/L	.
!LO:TX:t=P:problem:kreska pseudotaktowa	!	!	!LO:TX:t=P:problem:kreska pseudotaktowa	!	!	!	!	!	!	!	!
8D/J	#	.	8D/J	#	.	8D/J	.	.	.	.	.
!	!	!	!	!	!	!	!	!LO:TX:t=P:problem:kreska pseudotaktowa	!	!LO:TX:t=P:problem:kreska pseudotaktowa	!
.	.	.	.	.	.	.	.	16a/Jk	.	16f#/Jk	.
!	!	!	!	!	!	!LO:LB:g=original	!	!	!	!	!
=118	=118	=118	=118	=118	=118	=118	=118	=118	=118	=118	=118
!	!	!	!	!	!	!LO:TX:t=P:problem:mixed beam	!	!	!	!	!
4G\	.	.	4G\	.	.	16G\LL	.	4b/	.	4g/	.
.	.	.	.	.	.	16GG/	.	.	.	.	.
.	.	.	.	.	.	16AA/	.	.	.	.	.
.	.	.	.	.	.	16BB/JJ	.	.	.	.	.
!LO:N:acc=-	!	!	!LO:N:acc=-	!	!	!LO:N:acc=-	!	!	!	!	!
4Cn/	.	.	4Cn/	.	.	16Cn/LL	.	8r	.	4r	.
.	.	.	.	.	.	16E/	.	.	.	.	.
.	.	.	.	.	.	16D/	.	8e/	.	.	.
.	.	.	.	.	.	16C/JJ	.	.	.	.	.
!	!	!	!	!	!	!	!	!	!	!LO:TX:t=P:problem:kreska pseudotaktowa	!
16D/LL	.	.	16D/LL	.	.	16D/LL	.	8f#/L	.	2r	.
16AA/	.	.	16AA/	.	.	16AA/	.	.	.	.	.
16BB/	.	.	16BB/	.	.	16BB/	.	8f#/	.	.	.
!	!	!	!	!	!	!LO:N:acc=-	!	!	!	!	!
16C/JJ	.	.	16C/JJ	.	.	16Cn/JJ	.	.	.	.	.
8.D/L	.	.	8.D/L	.	.	16D\LL	.	8f#/	.	.	.
.	.	.	.	.	.	16E\	.	.	.	.	.
!	!	!	!	!	!	!LO:TX:t=P:problem:♭above	!	!	!	!	!
!	!	!	!	!	!	!LO:N:acc=-	!	!LO:TX:t=P:problem:kreska pseudotaktowa	!	!	!
.	.	.	.	.	.	16Cn\	.	8f#/J	.	.	.
!LO:SIC:v:t=custos BB	!	!	!LO:SIC:v:t=custos BB	!	!	!	!	!	!	!	!
!LO:N:acc=-	!	!	!LO:N:acc=-	!	!	!LO:TX:t=P:problem:kreska pseudotaktowa	!	!	!	!	!
16Cn/Jk	.	.	16Cn/Jk	.	.	16D\JJ	.	.	.	.	.
!LO:LB:g=original	!	!	!LO:LB:g=original	!	!	!	!	!	!	!	!
=119-	=119	=119	=119-	=119	=119	=119	=119	=119	=119	=119	=119
!LO:TX:t=P:problem:mixed beam	!	!	!LO:TX:t=P:problem:mixed beam	!	!	!LO:TX:t=P:problem:mixed beam	!	!	!	!	!
16BB/LL	6	.	16BB/LL	6	.	16BB/LL	.	8g/L	.	2r	.
16G\	.	.	16G\	.	.	16G\	.	.	.	.	.
16F#\	.	.	16F#\	.	.	16F#\	.	8a/J	.	.	.
16E\JJ	.	.	16E\JJ	.	.	16E\JJ	.	.	.	.	.
16D/LL	.	.	16D/LL	.	.	16D/LL	.	16b\LL	.	.	.
16BB/	.	.	16BB/	.	.	16BB/	.	16dd\	.	.	.
!	!	!	!	!	!	!	!	!LO:TX:t=P:problem:♭above	!	!	!
!	!	!	!	!	!	!	!	!LO:N:acc=-	!	!	!
16AA/	-	.	16AA/	-	.	16AA/	.	16ccn\	.	.	.
16GG/JJ	.	.	16GG/JJ	.	.	16GG/JJ	.	16b\JJ	.	.	.
4FF#/	6	.	4FF#/	6	.	4FF#/	.	4a/	.	16r	.
.	.	.	.	.	.	.	.	.	.	16dd\LL	.
.	.	.	.	.	.	.	.	.	.	16ee\	.
.	.	.	.	.	.	.	.	.	.	16ff#\JJ	.
!LO:TX:t=P:problem:kreska pseudotaktowa	!	!	!LO:TX:t=P:problem:kreska pseudotaktowa	!	!	!	!	!	!	!	!
4BB/	6	.	4BB/	6	.	8r	.	8r	.	16gg\LL	.
.	.	.	.	.	.	.	.	.	.	16bb\	.
!	!	!	!	!	!	!LO:TX:t=P:problem:kreska pseudotaktowa	!	!LO:TX:t=P:problem:kreska pseudotaktowa	!	!	!
.	.	.	.	.	.	8BB/	.	8d/	.	16aa\	.
!	!	!	!	!	!	!	!	!	!	!LO:TX:t=P:problem:kreska pseudotaktowa	!
.	.	.	.	.	.	.	.	.	.	16gg\JJ	.
=120	=120	=120	=120	=120	=120	=120	=120	=120	=120	=120	=120
8C#/L	.	.	8C#/L	.	.	8C#/L	.	8e/L	.	16aa\LL	.
.	.	.	.	.	.	.	.	.	.	16ee\	.
8C#/	6	.	8C#/	6	.	8C#/	.	8e/	.	16ff#\	.
.	.	.	.	.	.	.	.	.	.	16gg\JJ	.
8C#/	6	.	8C#/	6	.	8C#/	.	8e/	.	16aa\LL	.
.	.	.	.	.	.	.	.	.	.	16bb\	.
8C#/J	5	.	8C#/J	5	.	8C#/J	.	8e/J	.	16gg\	.
.	.	.	.	.	.	.	.	.	.	16aa\JJ	.
8D\L	.	.	8D\L	.	.	8D\L	.	8f#/L	.	16ff#\LL	.
.	.	.	.	.	.	.	.	.	.	16dd\	.
!	!	!	!	!	!	!	!	!LO:TX:t=P:problem:♯below	!	!	!
8E\	6 #	.	8E\	6 #	.	8E\	.	8g#X/	.	16cc#\	.
.	5	.	.	5	.	.	.	.	.	16b\JJ	.
!	!	!	!	!	!	!	!	!	!	!LO:TX:t=P:problem:mixed beam	!
8F#\	.	.	8F#\	.	.	8F#\	.	8a/	.	16a/LL	.
.	.	.	.	.	.	.	.	.	.	16aa\	.
!	!	!	!	!	!	!LO:TX:t=P:problem:kreska pseudotaktowa	!	!LO:TX:t=P:problem:kreska pseudotaktowa	!	!	!
!LO:TX:t=P:problem:kreska pseudotaktowa	!	!	!LO:TX:t=P:problem:kreska pseudotaktowa	!	!	!LO:TX:t=P:problem:♯above	!	!LO:SIC:v:t=custos c	!	!LO:TX:t=P:problem:♯above	!
8G#X\J	.	.	8G#X\J	.	.	8G#X\J	.	8b/J	.	16gg#X\	.
!	!	!	!	!	!	!	!	!	!	!LO:TX:t=P:problem:kreska pseudotaktowa	!
.	.	.	.	.	.	.	.	.	.	16ff#\JJ	.
!	!	!	!	!	!	!	!	!LO:LB:g=original	!	!	!
=121	=121	=121	=121	=121	=121	=121	=121	=121	=121	=121	=121
4A\	.	.	4A\	.	.	4A\	.	16cc#\LL	.	16ee\LL	.
.	.	.	.	.	.	.	.	16a\	.	16cc#\	.
.	.	.	.	.	.	.	.	16b\	.	16dd\	.
.	.	.	.	.	.	.	.	16cc#\JJ	.	16ee\JJ	.
4F#\	6	.	4F#\	6	.	4F#\	.	16dd\LL	.	16ff#\LL	.
.	.	.	.	.	.	.	.	16ee\	.	16gg\	.
.	.	.	.	.	.	.	.	16dd\	.	16ff#\	.
.	.	.	.	.	.	.	.	16cc#\JJ	.	16ee\JJ	.
!	!	!	!	!	!	!	!	!	!	!LO:LB:g=original	!
4G\	.	.	4G\	.	.	4G\	.	16b\LL	.	16dd\LL	.
.	.	.	.	.	.	.	.	16b\	.	16dd\	.
.	.	.	.	.	.	.	.	16cc#\	.	16ee\	.
.	.	.	.	.	.	.	.	16dd\JJ	.	16ff#\JJ	.
!LO:TX:t=P:problem:kreska pseudotaktowa	!	!	!LO:TX:t=P:problem:kreska pseudotaktowa	!	!	!LO:SIC:v:t=custos A	!	!	!	!	!
4E\	.	.	4E\	-	.	4E\	.	16ee\LL	.	16gg\LL	.
.	.	.	.	.	.	.	.	16ff#\	.	16aa\	.
.	.	.	.	.	.	.	.	16ee\	.	16gg\	.
!	!	!	!	!	!	!	!	!LO:TX:t=P:problem:kreska pseudotaktowa	!	!	!
.	.	.	.	.	.	.	.	16dd\JJ	.	16ff#\JJ	.
!	!	!	!	!	!	!LO:PB:g=original	!	!	!	!	!
=122	=122	=122	=122	=122	=122	=122	=122	=122	=122	=122	=122
8A\L	.	.	8A\L	.	.	8A\L	.	16cc#\LL	.	16ee\LL	.
.	.	.	.	.	.	.	.	16cc#\	.	16ee\	.
8G\	.	.	8G\	.	.	8G\	.	16dd\	.	16ff#\	.
.	.	.	.	.	.	.	.	16ee\JJ	.	16gg\JJ	.
!	!	!	!	!	!	!	!	!LO:TX:t=P:problem:mixed beam	!	!	!
8F#\	.	.	8F#\	5	.	8F#\	.	16ff#\LL	.	16aa\LL	.
.	.	.	.	.	.	.	.	16a/	.	16cc#\	.
8E\J	5	.	8E\J	6\	.	8E\J	.	16b/	.	16dd\	.
.	6	.	.	.	.	.	.	16cc#/JJ	.	16ee\JJ	.
!LO:TX:t=P:problem:mixed beam	!	!	!LO:TX:t=P:problem:mixed beam	!	!	!LO:TX:t=P:problem:mixed beam	!	!	!	!	!
8D\L	.	.	8D\L	.	.	8D\L	.	8dd\L	.	8ff#\	.
8G\	6 5	.	8G\	6 5	.	8G\	.	8dd\	.	4ee\	.
8A\	4	.	8A\	4	.	8A\	.	8.dd\	.	.	.
!LO:TX:t=P:problem:kreska pseudotaktowa	!	!	!LO:TX:t=P:problem:kreska pseudotaktowa	!	!	!LO:TX:t=P:problem:kreska pseudotaktowa	!	!	!	!LO:TX:t=P:problem:kreska pseudotaktowa	!
8AA/J	3	.	8AA/J	#	.	8AA/J	.	.	.	8ee\	.
!	!	!	!	!	!	!	!	!LO:TX:t=P:problem:kreska pseudotaktowa	!	!	!
.	.	.	.	.	.	.	.	16cc#\Jk	.	.	.
=123	=123	=123	=123	=123	=123	=123	=123	=123	=123	=123	=123
4.D/	.	.	4.D/	.	.	16D\LL	.	4dd\	.	8ff#\L	.
.	.	.	.	.	.	16E\	.	.	.	.	.
.	.	.	.	.	.	16F#\	.	.	.	8ff#\	.
.	.	.	.	.	.	16E\JJ	.	.	.	.	.
.	.	.	.	.	.	16D\LL	.	4r	.	8ff#\	.
.	.	.	.	.	.	16E\	.	.	.	.	.
8C#/	.	.	8C#/	.	.	16C#\	.	.	.	8ff#\J	.
.	.	.	.	.	.	16D\JJ	.	.	.	.	.
!LO:TX:t=P:problem:kreska pseudotaktowa	!	!	!LO:TX:t=P:problem:kreska pseudotaktowa	!	!	!	!	!	!	!	!
!LO:SIC:v:t=custos AA	!	!	!LO:SIC:v:t=custos AA	!	!	!	!	!	!	!	!
2BB/	6\	.	2BB/	6\	.	4.BB/	.	4r	.	16gg#X\LL	.
.	.	.	.	.	.	.	.	.	.	16aa\	.
.	.	.	.	.	.	.	.	.	.	16bb\	.
.	.	.	.	.	.	.	.	.	.	16aa\JJ	.
.	.	.	.	.	.	.	.	8r	.	16gg#\LL	.
.	.	.	.	.	.	.	.	.	.	16aa\	.
!	!	!	!	!	!	!LO:TX:t=P:problem:kreska pseudotaktowa	!	!LO:TX:t=P:problem:kreska pseudotaktowa	!	!	!
.	.	.	.	.	.	8BB/	.	8b/	.	16ff#\	.
!	!	!	!	!	!	!	!	!	!	!LO:TX:t=P:problem:kreska pseudotaktowa	!
.	.	.	.	.	.	.	.	.	.	16gg#\JJ	.
!	!	!	!LO:LB:g=original	!	!	!	!	!	!	!	!
=124	=124	=124	=124	=124	=124	=124	=124	=124	=124	=124	=124
4.AA/	.	.	4.AA/	.	.	4.AA/	.	8cc#\L	.	4aa\	.
.	.	.	.	.	.	.	.	8cc#\	.	.	.
.	.	.	.	.	.	.	.	8cc#\	.	4r	.
8AA/	.	.	8AA/	.	.	8AA/	.	8cc#\J	.	.	.
!LO:LB:g=original	!	!	!	!	!	!	!	!LO:TX:t=P:problem:mixed beam	!	!	!
8BB/L	.	.	8BB/L	.	.	8BB/L	.	16dd\LL	.	2r	.
.	.	.	.	.	.	.	.	16d/	.	.	.
8BB/	6	.	8BB/	6	.	8BB/	.	16e/	.	.	.
.	.	.	.	.	.	.	.	16f#/JJ	.	.	.
8BB/	5	.	8BB/	5	.	8BB/	.	16g/LL	.	.	.
.	.	.	.	.	.	.	.	16a/	.	.	.
!LO:TX:t=P:problem:kreska pseudotaktowa	!	!	!LO:TX:t=P:problem:kreska pseudotaktowa	!	!	!LO:TX:t=P:problem:kreska pseudotaktowa	!	!	!	!	!
8BB/J	.	.	8BB/J	.	.	8BB/J	.	16f#/	.	.	.
!	!	!	!	!	!	!	!	!LO:SIC:v:t=custos e	!	!	!
.	.	.	.	.	.	.	.	16g/JJ	.	.	.
!	!	!	!	!	!	!	!	!LO:LB:g=original	!	!	!
=125	=125	=125	=125	=125	=125	=125	=125	=125	=125	=125-	=125
8C#/L	5	.	8C#/L	5	.	8C#/L	.	16e/LL	.	1r	.
.	.	.	.	.	.	.	.	16e/	.	.	.
8BB/	6\	.	8BB/	6\	.	8BB/	.	16f#/	.	.	.
!	!	!	!	!	!	!	!	!LO:TX:t=P:problem:♯below	!	!	!
.	.	.	.	.	.	.	.	16g#X/JJ	.	.	.
8AA/	.	.	8AA/	.	.	8AA/	.	16a\LL	.	.	.
.	.	.	.	.	.	.	.	16a\	.	.	.
8GG/J	.	.	8GG/J	.	.	8GG/J	.	16b\	.	.	.
.	.	.	.	.	.	.	.	16cc#\JJ	.	.	.
!LO:TX:t=P:problem:mixed beam	!	!	!LO:TX:t=P:problem:mixed beam	!	!	!LO:TX:t=P:problem:mixed beam	!	!	!	!	!
8FF#/L	.	.	8FF#/L	.	.	8FF#/L	.	16dd\LL	.	.	.
.	.	.	.	.	.	.	.	16ee\	.	.	.
8F#\J	.	.	8F#\J	.	.	8F#\	.	16ff#\	.	.	.
.	.	.	.	.	.	.	.	16gg\JJ	.	.	.
8C#/L	6	.	8C#/L	6	.	8C#\	.	16aa\LL	.	.	.
.	.	.	.	.	.	.	.	16ee\	.	.	.
!LO:TX:t=P:problem:kreska pseudotaktowa	!	!	!LO:TX:t=P:problem:kreska pseudotaktowa	!	!	!LO:TX:t=P:problem:kreska pseudotaktowa	!	!	!	!	!
8D/J	.	.	8D/J	.	.	8D\J	.	16dd\	.	.	.
!	!	!	!	!	!	!	!	!LO:TX:t=P:problem:kreska pseudotaktowa	!	!	!
.	.	.	.	.	.	.	.	16cc#\JJ	.	.	.
=126	=126	=126	=126	=126	=126	=126	=126	=126	=126	=126	=126
4E\	4	.	4E\	4	.	4E\	.	8b/L	.	4r	.
.	.	.	.	.	.	.	.	8a/J	.	.	.
4EE/	#	.	4EE/	#	.	4EE/	.	16b/LL	.	8r	.
.	.	.	.	.	.	.	.	16a/J	.	.	.
!	!	!	!	!	!	!	!	!LO:TX:t=P:problem:♯below	!	!	!
.	.	.	.	.	.	.	.	8g#X/J	.	8b/	.
2AA/	.	.	2AA/	.	.	4AA/	.	4a/	.	8cc#\L	.
.	.	.	.	.	.	.	.	.	.	8cc#\	.
!	!	!	!	!	!	!LO:TX:t=P:problem:kreska pseudotaktowa	!	!	!	!	!
.	.	.	.	.	.	4r	.	8r	.	8cc#\	.
!	!	!	!	!	!	!	!	!LO:TX:t=P:problem:kreska pseudotaktowa	!	!	!
.	.	.	.	.	.	.	.	8e/	.	8cc#\J	.
!	!	!	!	!	!	!	!	!	!	!LO:LB:g=original	!
=127-	=127	=127	=127-	=127	=127	=127	=127	=127	=127	=127-	=127
2D/	.	.	2D/	.	.	2r	.	8f#/L	.	16dd/LL	.
.	.	.	.	.	.	.	.	.	.	16a\	.
.	.	.	.	.	.	.	.	8f#/	.	16b\	.
.	.	.	.	.	.	.	.	.	.	16cc#\JJ	.
.	.	.	.	.	.	.	.	8f#/	.	16dd\LL	.
.	.	.	.	.	.	.	.	.	.	16ee\	.
.	.	.	.	.	.	.	.	8f#/J	.	16cc#\	.
.	.	.	.	.	.	.	.	.	.	16dd\JJ	.
4G\	.	.	4G\	.	.	4r	.	16g/LL	.	4b/	.
.	.	.	.	.	.	.	.	16d/	.	.	.
.	.	.	.	.	.	.	.	16e/	.	.	.
.	.	.	.	.	.	.	.	16f#/JJ	.	.	.
!LO:TX:t=P:problem:kreska pseudotaktowa	!	!	!LO:TX:t=P:problem:kreska pseudotaktowa	!	!	!	!	!	!	!	!
4BB/	6	.	4BB/	6	.	8r	.	16g\LL	.	8r	.
.	.	.	.	.	.	.	.	16a\	.	.	.
!	!	!	!	!	!	!LO:SIC:v:t=custos C	!	!	!	!LO:TX:t=P:problem:kreska pseudotaktowa	!
.	.	.	.	.	.	8BB/	.	16b\	.	8dd\	.
!	!	!	!	!	!	!	!	!LO:TX:t=P:problem:kreska pseudotaktowa	!	!	!
.	.	.	.	.	.	.	.	16cc#\JJ	.	.	.
!	!	!	!	!	!	!LO:LB:g=original	!	!	!	!	!
=128	=128	=128	=128	=128	=128	=128	=128	=128	=128	=128	=128
8C#/L	.	.	8C#/L	.	.	8C#/L	.	16a/LL	.	8ee\L	.
.	.	.	.	.	.	.	.	16e/	.	.	.
8C#/	.	.	8C#/	6	.	8C#/	.	16f#/	.	8ee\	.
.	.	.	.	.	.	.	.	16g/JJ	.	.	.
8C#/	.	.	8C#/	.	.	8C#/	.	16a/LL	.	8ee\	.
.	.	.	.	.	.	.	.	16b/	.	.	.
8C#/J	.	.	8C#/J	.	.	8C#/J	.	16g/	.	8ee\J	.
!	!	!	!	!	!	!	!	!LO:SIC:v:t=custos f	!	!	!
.	.	.	.	.	.	.	.	16a/JJ	.	.	.
!	!	!	!	!	!	!	!	!LO:LB:g=original	!	!	!
!	!	!	!	!	!	!	!	!LO:TX:t=P:problem:mixed beam	!	!	!
8D\L	.	.	8D\L	.	.	8D\L	.	16f#/LL	.	8ff#\L	.
.	.	.	.	.	.	.	.	16dd\	.	.	.
8E\	.	.	8E\	.	.	8E\	.	16cc#\	.	8gg\J	.
.	.	.	.	.	.	.	.	16b\JJ	.	.	.
8F#\	.	.	8F#\	.	.	8F#\	.	16a/LL	.	8aa\L	.
.	.	.	.	.	.	.	.	16f#/	.	.	.
!LO:TX:t=P:problem:kreska pseudotaktowa	!	!	!LO:TX:t=P:problem:kreska pseudotaktowa	!	!	!LO:TX:t=P:problem:kreska pseudotaktowa	!	!	!	!	!
8G\J	6	.	8G\J	6	.	8G\J	.	16e/	.	16gg\L	.
!	!	!	!	!	!	!	!	!LO:TX:t=P:problem:kreska pseudotaktowa	!	!LO:TX:t=P:problem:kreska pseudotaktowa	!
.	5	.	.	5	.	.	.	16d/JJ	.	16ff#\JJ	.
=129	=129	=129	=129	=129	=129	=129	=129	=129	=129	=129	=129
!	!	!	!	!	!	!	!	!LO:TX:t=P:problem:♯below	!	!	!
4.A\	5	.	4.A\	5	.	4.A\	.	16c#X/LL	.	16ee\LL	.
.	6	.	.	6\	.	.	.	16e/	.	16cc#\	.
.	.	.	.	.	.	.	.	16f#/	.	16dd\	.
.	.	.	.	.	.	.	.	16g/JJ	.	16ee\JJ	.
!	!	!	!	!	!	!	!	!	!	!LO:TX:t=P:problem:mixed beam	!
.	.	.	.	.	.	.	.	16a/LL	.	16ff#\LL	.
.	.	.	.	.	.	.	.	16f#/	.	16a/	.
8AA/	.	.	8AA/	.	.	8AA/	.	16g/	.	16b/	.
.	.	.	.	.	.	.	.	16a/JJ	.	16cc#/JJ	.
!	!	!	!	!	!	!	!	!	!	!LO:TX:t=P:problem:mixed beam	!
4BB/	6	.	4BB/	6	.	4BB/	.	4d/	.	16dd\LL	.
.	.	.	.	.	.	.	.	.	.	16g/	.
.	.	.	.	.	.	.	.	.	.	16a/	.
.	.	.	.	.	.	.	.	.	.	16b/JJ	.
!LO:SIC:v:t=custos FF	!	!	!LO:SIC:v:t=custos FF	!	!	!	!	!	!	!LO:N:acc=-	!
4EE/	-	.	4EE/	- 6	.	8r	.	8r	.	16ccn\LL	.
.	.	.	.	.	.	.	.	.	.	16ee\	.
!	!	!	!	!	!	!LO:TX:t=P:problem:kreska pseudotaktowa	!	!LO:TX:t=P:problem:kreska pseudotaktowa	!	!	!
.	.	.	.	.	.	8EE/	.	8g/	.	16dd\	.
!	!	!	!	!	!	!	!	!	!	!LO:TX:t=P:problem:kreska pseudotaktowa	!
.	.	.	.	.	.	.	.	.	.	16cc\JJ	.
!LO:LB:g=original	!	!	!LO:LB:g=original	!	!	!	!	!	!	!	!
=130	=130	=130	=130	=130	=130	=130	=130	=130	=130	=130	=130
8FF#/L	.	.	8FF#/L	.	.	8FF#/L	.	8a/L	.	16dd\LL	.
.	.	.	.	.	.	.	.	.	.	16a\	.
8FF#/	6	.	8FF#/	6	.	8FF#/	.	8a/	.	16b\	.
.	-5	.	.	5	.	.	.	.	.	16cc#\JJ	.
8FF#/	.	.	8FF#/	.	.	8FF#/	.	8a/	.	16dd\LL	.
.	.	.	.	.	.	.	.	.	.	16ee\	.
!	!	!	!	!	!	!	!	!	!	!LO:TX:t=P:problem:♭above	!
!	!	!	!	!	!	!	!	!	!	!LO:N:acc=-	!
8FF#/J	.	.	8FF#/J	.	.	8FF#/J	.	8a/J	.	16ccn\	.
.	.	.	.	.	.	.	.	.	.	16dd\JJ	.
!	!	!	!	!	!	!	!	!	!	!LO:LB:g=original	!
8GG/L	.	.	8GG/L	.	.	8GG/L	.	8b\L	.	16b\LL	.
.	.	.	.	.	.	.	.	.	.	16gg\	.
!	!	!	!	!	!	!	!	!LO:TX:t=P:problem:♭above	!	!	!
!	!	!	!	!	!	!	!	!LO:N:acc=-	!	!	!
8AA/	6	.	8AA/	6 4	.	8AA/	.	8ccn\J	.	16ff#\	.
.	5	.	.	5	.	.	.	.	.	16ee\JJ	.
8BB/	.	.	8BB/	.	.	8BB/	.	8dd\L	.	16dd\LL	.
.	.	.	.	.	.	.	.	.	.	16b\	.
!LO:TX:t=P:problem:kreska pseudotaktowa	!	!	!LO:TX:t=P:problem:kreska pseudotaktowa	!	!	!LO:TX:t=P:problem:kreska pseudotaktowa	!	!LO:TX:t=P:problem:♭above	!	!	!
!LO:N:acc=-	!	!	!LO:N:acc=-	!	!	!LO:N:acc=-	!	!LO:N:acc=-	!	!	!
8Cn/J	6	.	8Cn/J	6	.	8Cn/J	.	16ccn\L	.	16a\	.
!	!	!	!	!	!	!	!	!LO:TX:t=P:problem:kreska pseudotaktowa	!	!LO:TX:t=P:problem:kreska pseudotaktowa	!
.	5	.	.	5	.	.	.	16b\JJ	.	16g\JJ	.
=131	=131	=131	=131	=131	=131	=131	=131	=131	=131	=131	=131
[2D/	#	.	[2D/	#	.	2.D/	.	16a/LL	.	16f#/LL	.
.	.	.	.	.	.	.	.	16g/	.	16e/	.
.	.	.	.	.	.	.	.	16a/	.	16f#/	.
.	.	.	.	.	.	.	.	16b/J	.	16g/JJ	.
!	!	!	!	!	!	!	!	!	!	!LO:TX:t=P:problem:mixed beam	!
.	.	.	.	.	.	.	.	8a/	.	8f#/L	.
.	.	.	.	.	.	.	.	8f#/J	.	8dd\J	.
4D/]	4 2	.	4D/]	4 2	.	.	.	8g#X/L	.	8ee\L	.
.	.	.	.	.	.	.	.	8g#/	.	8ee\	.
!LO:TX:t=P:problem:kreska pseudotaktowa	!	!	!LO:TX:t=P:problem:kreska pseudotaktowa	!	!	!LO:TX:t=P:problem:kreska pseudotaktowa	!	!	!	!	!
!LO:N:acc=-	!	!	!LO:N:acc=-	!	!	!LO:N:acc=-	!	!	!	!	!
[4Cn/	6	.	[4Cn/	6	.	[4Cn/	.	8a/	.	8ee\	.
!	!	!	!	!	!	!	!	!LO:TX:t=P:problem:kreska pseudotaktowa	!	!LO:TX:t=P:problem:kreska pseudotaktowa	!
.	.	.	.	.	.	.	.	8a/J	.	8ee\J	.
=132	=132	=132	=132	=132	=132	=132	=132	=132	=132	=132	=132
4C/]	4 2	.	4C/]	#4 2	.	4C/]	.	4a/	.	4ff#\	.
4BB/	6	.	4BB/	6	.	4BB/	.	4b/	.	2gg\	.
!LO:SIC:v:s=4C/	!	!	!LO:SIC:v:s=4C/	!	!	!LO:N:acc=-	!	!	!	!	!
4Cny/	6 5	.	4C#X/	6 5	.	4Cn/	.	2a/	.	.	.
4D\	.	.	4D\	.	.	4D/	.	.	.	4ff#\	.
=133	=133	=133	=133	=133	=133	=133	=133	=133-	=133	=133-	=133
[y0GG/	.	.	[y0GG/	.	.	[y0GG/	.	[y0b\	.	[y0gg\	.
=134;	=134	=134	=134	=134	=134	=134;	=134	=134-;	=134	=134-;<	=134
0GG/]	.	.	0GG/;]	.	.	0GG/]	.	0b\]	.	0gg\]	.
==	==	==	==	==	==	==	==	==	==	==	==
*-	*-	*-	*-	*-	*-	*-	*-	*-	*-	*-	*-
!!!system-decoration: [(s1,s2)][(s3,s4,s5)]
!!!RDF**kern: > = above
!!!RDF**kern: < = below
!!!ENC: Andrzej Borzym
!!!END: 2022-01-26
!!!ENC: Leszek Kubiak
!!!END: 2022-01-31
!!!YEC: Copyright 2022 Narodowy Instytut Fryderyka Chopina (https://polishscores.org)
!!!YEM: License CC-BY-4.0 (https://creativecommons.org/licenses/by/4.0)
